;FLAVOR:Marlin
;TIME:1650
;Filament used: 1.72676m
;Layer height: 0.28
;MINX:24
;MINY:24
;MINZ:0.28
;MAXX:196
;MAXY:196
;MAXZ:1.96
;Generated with Cura_SteamEngine 4.4.0
M140 S60
M105
M190 S60
M104 S200
M105
M109 S200
M82 ;absolute extrusion mode
M201 X500.00 Y500.00 Z100.00 E5000.00 ;Setup machine max acceleration
M203 X500.00 Y500.00 Z10.00 E50.00 ;Setup machine max feedrate
M204 P500.00 R1000.00 T500.00 ;Setup Print/Retract/Travel acceleration
M205 X8.00 Y8.00 Z0.40 E5.00 ;Setup Jerk
M220 S100 ;Reset Feedrate
M221 S100 ;Reset Flowrate

G28 ;Home

G92 E0 ;Reset Extruder
G1 Z2.0 F3000 ;Move Z Axis up
G1 X10.1 Y20 Z0.28 F5000.0 ;Move to start position
G1 X10.1 Y200.0 Z0.28 F1500.0 E15 ;Draw the first line
G1 X10.4 Y200.0 Z0.28 F5000.0 ;Move to side a little
G1 X10.4 Y20 Z0.28 F1500.0 E30 ;Draw the second line
G92 E0 ;Reset Extruder
G1 Z2.0 F3000 ;Move Z Axis up

G92 E0
G92 E0
G1 F1500 E-6.5
;LAYER_COUNT:7
;LAYER:0
M107
G0 F6000 X27.198 Y27.264 Z0.28
;TYPE:SKIRT
G1 F1500 E0
G1 F1200 X27.886 Y26.627 E0.04366
G1 X28.626 Y26.051 E0.08732
G1 X29.412 Y25.539 E0.131
G1 X30.239 Y25.097 E0.17467
G1 X31.101 Y24.727 E0.21835
G1 X31.991 Y24.431 E0.26202
G1 X32.903 Y24.213 E0.30568
G1 X33.83 Y24.072 E0.34935
G1 X34.701 Y24.013 E0.39
G1 X35.022 Y24.004 E0.40495
G1 X35.33 Y24 E0.41929
G1 X184.293 Y24 E7.35563
G1 X184.451 Y24.001 E7.36299
G1 X185.149 Y24.011 E7.3955
G1 X186.085 Y24.065 E7.43915
G1 X187.013 Y24.197 E7.4828
G1 X187.927 Y24.409 E7.52649
G1 X188.819 Y24.698 E7.57015
G1 X189.684 Y25.061 E7.61383
G1 X190.514 Y25.497 E7.65749
G1 X191.305 Y26.002 E7.70119
G1 X192.049 Y26.573 E7.74486
G1 X192.742 Y27.205 E7.78853
G1 X193.379 Y27.893 E7.83219
G1 X193.954 Y28.634 E7.87586
G1 X194.465 Y29.42 E7.91952
G1 X194.907 Y30.248 E7.96322
G1 X195.276 Y31.11 E8.00688
G1 X195.571 Y32 E8.05054
G1 X195.789 Y32.912 E8.0942
G1 X195.929 Y33.84 E8.1379
G1 X195.987 Y34.701 E8.17809
G1 X195.996 Y35.021 E8.19299
G1 X196 Y35.33 E8.20738
G1 X196 Y184.264 E15.14237
G1 X195.999 Y184.4 E15.14871
G1 X195.99 Y185.127 E15.18256
G1 X195.939 Y186.064 E15.22626
G1 X195.807 Y186.992 E15.2699
G1 X195.598 Y187.906 E15.31356
G1 X195.311 Y188.799 E15.35724
G1 X194.949 Y189.665 E15.40094
G1 X194.515 Y190.496 E15.4446
G1 X194.011 Y191.287 E15.48827
G1 X193.442 Y192.032 E15.53192
G1 X192.811 Y192.727 E15.57563
G1 X192.124 Y193.365 E15.61929
G1 X191.385 Y193.942 E15.66295
G1 X190.599 Y194.454 E15.70663
G1 X189.773 Y194.897 E15.75027
G1 X188.911 Y195.269 E15.79399
G1 X188.022 Y195.565 E15.83762
G1 X187.11 Y195.785 E15.8813
G1 X186.183 Y195.926 E15.92496
G1 X185.299 Y195.987 E15.96622
G1 X184.978 Y195.996 E15.98118
G1 X184.67 Y196 E15.99552
G1 X35.707 Y196 E22.93186
G1 X35.565 Y195.999 E22.93847
G1 X34.867 Y195.99 E22.97098
G1 X33.931 Y195.938 E23.01463
G1 X33.002 Y195.806 E23.05832
G1 X32.088 Y195.596 E23.10199
G1 X31.195 Y195.309 E23.14567
G1 X30.33 Y194.946 E23.18935
G1 X29.499 Y194.512 E23.233
G1 X28.708 Y194.008 E23.27668
G1 X27.963 Y193.438 E23.32036
G1 X27.269 Y192.807 E23.36403
G1 X26.632 Y192.12 E23.40766
G1 X26.055 Y191.38 E23.45135
G1 X25.543 Y190.594 E23.49503
G1 X25.1 Y189.767 E23.53872
G1 X24.729 Y188.906 E23.58237
G1 X24.433 Y188.016 E23.62604
G1 X24.214 Y187.104 E23.66972
G1 X24.073 Y186.177 E23.71338
G1 X24.013 Y185.288 E23.75487
G1 X24.004 Y184.955 E23.77038
G1 X24 Y184.658 E23.78421
G1 X24 Y35.674 E30.72153
G1 X24.001 Y35.525 E30.72847
G1 X24.01 Y34.86 E30.75944
G1 X24.063 Y33.924 E30.80309
G1 X24.195 Y32.995 E30.84678
G1 X24.406 Y32.081 E30.89046
G1 X24.694 Y31.189 E30.93411
G1 X25.057 Y30.324 E30.97779
G1 X25.492 Y29.493 E31.02147
G1 X25.996 Y28.703 E31.0651
G1 X26.566 Y27.958 E31.10878
G1 X27.198 Y27.264 E31.15249
G0 F6000 X27.589 Y27.439
G1 F1200 X28.274 Y26.823 E31.19538
G1 X29.01 Y26.27 E31.23825
G1 X29.791 Y25.782 E31.28113
G1 X30.611 Y25.364 E31.32399
G1 X31.465 Y25.019 E31.36688
G1 X32.345 Y24.749 E31.40974
G1 X33.245 Y24.557 E31.45259
G1 X34.159 Y24.443 E31.49548
G1 X34.712 Y24.413 E31.52127
G1 X35.033 Y24.404 E31.53622
G1 X35.33 Y24.4 E31.55005
G1 X184.293 Y24.4 E38.48639
G1 X184.445 Y24.401 E38.49347
G1 X185.143 Y24.411 E38.52598
G1 X186.062 Y24.464 E38.56884
G1 X186.973 Y24.597 E38.61171
G1 X187.869 Y24.808 E38.65457
G1 X188.743 Y25.096 E38.69742
G1 X189.59 Y25.459 E38.74033
G1 X190.401 Y25.894 E38.78318
G1 X191.171 Y26.398 E38.82604
G1 X191.895 Y26.967 E38.86891
G1 X192.567 Y27.597 E38.91181
G1 X193.182 Y28.282 E38.95467
G1 X193.735 Y29.018 E38.99754
G1 X194.222 Y29.799 E39.0404
G1 X194.639 Y30.62 E39.08327
G1 X194.984 Y31.474 E39.12616
G1 X195.253 Y32.354 E39.16901
G1 X195.445 Y33.255 E39.21191
G1 X195.558 Y34.168 E39.25474
G1 X195.587 Y34.712 E39.28011
G1 X195.596 Y35.032 E39.29502
G1 X195.6 Y35.33 E39.3089
G1 X195.6 Y184.264 E46.24389
G1 X195.599 Y184.395 E46.24999
G1 X195.59 Y185.122 E46.28384
G1 X195.539 Y186.041 E46.3267
G1 X195.408 Y186.953 E46.3696
G1 X195.198 Y187.849 E46.41245
G1 X194.912 Y188.724 E46.45532
G1 X194.551 Y189.571 E46.49819
G1 X194.117 Y190.383 E46.54106
G1 X193.615 Y191.155 E46.58394
G1 X193.047 Y191.88 E46.62683
G1 X192.419 Y192.553 E46.66969
G1 X191.735 Y193.169 E46.71255
G1 X191 Y193.723 E46.75541
G1 X190.22 Y194.212 E46.79828
G1 X189.4 Y194.631 E46.84116
G1 X188.547 Y194.977 E46.88402
G1 X187.667 Y195.248 E46.92689
G1 X186.767 Y195.441 E46.96975
G1 X185.853 Y195.556 E47.01265
G1 X185.288 Y195.587 E47.039
G1 X184.967 Y195.596 E47.05395
G1 X184.67 Y195.6 E47.06778
G1 X35.707 Y195.6 E54.00412
G1 X35.57 Y195.599 E54.0105
G1 X34.872 Y195.59 E54.04301
G1 X33.953 Y195.538 E54.08587
G1 X33.042 Y195.407 E54.12872
G1 X32.146 Y195.197 E54.17158
G1 X31.271 Y194.91 E54.21446
G1 X30.424 Y194.548 E54.25735
G1 X29.612 Y194.114 E54.30022
G1 X28.841 Y193.612 E54.34306
G1 X28.116 Y193.044 E54.38595
G1 X27.443 Y192.415 E54.42884
G1 X26.828 Y191.731 E54.47167
G1 X26.274 Y190.996 E54.51453
G1 X25.786 Y190.215 E54.55741
G1 X25.367 Y189.395 E54.60029
G1 X25.021 Y188.542 E54.64315
G1 X24.751 Y187.662 E54.68601
G1 X24.558 Y186.761 E54.72892
G1 X24.444 Y185.848 E54.77176
G1 X24.413 Y185.277 E54.79839
G1 X24.404 Y184.944 E54.8139
G1 X24.4 Y184.658 E54.82722
G1 X24.4 Y35.674 E61.76454
G1 X24.401 Y35.531 E61.7712
G1 X24.41 Y34.866 E61.80217
G1 X24.462 Y33.946 E61.84507
G1 X24.594 Y33.035 E61.88794
G1 X24.805 Y32.139 E61.9308
G1 X25.092 Y31.264 E61.97368
G1 X25.455 Y30.418 E62.01654
G1 X25.889 Y29.606 E62.05942
G1 X26.392 Y28.835 E62.10228
G1 X26.961 Y28.111 E62.14516
G1 X27.589 Y27.439 E62.18799
G0 F6000 X27.981 Y27.617
G1 F1200 X28.662 Y27.024 E62.23004
G1 X29.394 Y26.494 E62.27212
G1 X30.169 Y26.031 E62.31415
G1 X30.982 Y25.638 E62.3562
G1 X31.827 Y25.318 E62.39828
G1 X32.696 Y25.075 E62.44029
G1 X33.584 Y24.909 E62.48236
G1 X34.723 Y24.813 E62.53558
G1 X35.044 Y24.804 E62.55053
G1 X35.33 Y24.8 E62.56385
G1 X184.293 Y24.8 E69.50019
G1 X184.439 Y24.801 E69.50699
G1 X185.137 Y24.811 E69.5395
G1 X186.039 Y24.864 E69.58157
G1 X186.932 Y24.996 E69.62361
G1 X187.81 Y25.207 E69.66565
G1 X188.666 Y25.495 E69.70771
G1 X189.493 Y25.857 E69.74974
G1 X190.285 Y26.292 E69.79182
G1 X191.036 Y26.794 E69.83388
G1 X191.739 Y27.361 E69.87594
G1 X192.389 Y27.988 E69.91799
G1 X192.981 Y28.67 E69.96004
G1 X193.511 Y29.401 E70.00209
G1 X193.973 Y30.177 E70.04414
G1 X194.366 Y30.99 E70.08619
G1 X194.684 Y31.835 E70.12823
G1 X194.927 Y32.705 E70.17029
G1 X195.092 Y33.593 E70.21234
G1 X195.187 Y34.723 E70.26515
G1 X195.196 Y35.043 E70.28005
G1 X195.2 Y35.33 E70.29342
G1 X195.2 Y184.264 E77.22841
G1 X195.199 Y184.39 E77.23428
G1 X195.19 Y185.117 E77.26813
G1 X195.139 Y186.019 E77.3102
G1 X195.008 Y186.913 E77.35227
G1 X194.799 Y187.791 E77.3943
G1 X194.513 Y188.648 E77.43637
G1 X194.152 Y189.476 E77.47843
G1 X193.72 Y190.268 E77.52044
G1 X193.219 Y191.02 E77.56251
G1 X192.653 Y191.724 E77.60457
G1 X192.028 Y192.375 E77.6466
G1 X191.347 Y192.969 E77.68867
G1 X190.616 Y193.5 E77.73075
G1 X189.842 Y193.964 E77.77277
G1 X189.029 Y194.358 E77.81483
G1 X188.185 Y194.678 E77.85686
G1 X187.315 Y194.923 E77.89895
G1 X186.428 Y195.089 E77.94097
G1 X185.277 Y195.187 E77.99476
G1 X184.956 Y195.196 E78.00971
G1 X184.67 Y195.2 E78.02303
G1 X35.707 Y195.2 E84.95937
G1 X35.575 Y195.199 E84.96552
G1 X34.877 Y195.19 E84.99802
G1 X33.976 Y195.139 E85.04005
G1 X33.082 Y195.007 E85.08213
G1 X32.204 Y194.798 E85.12415
G1 X31.347 Y194.511 E85.16623
G1 X30.52 Y194.15 E85.20825
G1 X29.727 Y193.717 E85.25032
G1 X28.976 Y193.216 E85.29236
G1 X28.272 Y192.65 E85.33442
G1 X27.621 Y192.024 E85.37648
G1 X27.028 Y191.343 E85.41852
G1 X26.498 Y190.612 E85.46057
G1 X26.034 Y189.837 E85.50263
G1 X25.64 Y189.024 E85.5447
G1 X25.32 Y188.18 E85.58673
G1 X25.076 Y187.31 E85.6288
G1 X24.91 Y186.422 E85.67087
G1 X24.813 Y185.267 E85.72484
G1 X24.804 Y184.934 E85.74035
G1 X24.8 Y184.658 E85.7532
G1 X24.8 Y35.674 E92.69052
G1 X24.801 Y35.536 E92.69695
G1 X24.81 Y34.871 E92.72791
G1 X24.862 Y33.969 E92.76999
G1 X24.994 Y33.076 E92.81202
G1 X25.204 Y32.198 E92.85406
G1 X25.491 Y31.341 E92.89614
G1 X25.853 Y30.514 E92.93818
G1 X26.286 Y29.722 E92.98021
G1 X26.788 Y28.971 E93.02227
G1 X27.355 Y28.267 E93.06436
G1 X27.981 Y27.617 E93.10638
G1 F1500 E86.60638
;MESH:bed_level_test.STL
G0 F6000 X55.02 Y54.335
G0 X55.02 Y55.02
G0 X55.3 Y164.7
;TYPE:WALL-OUTER
G1 F1500 E93.10638
G1 F1200 X164.7 Y164.7 E98.2005
G1 X164.7 Y55.3 E103.29463
G1 X55.3 Y55.3 E108.38875
G1 X55.3 Y164.7 E113.48287
G0 F6000 X55.2 Y164.8
G1 F1200 X55.2 Y55.2 E118.58631
G1 X164.8 Y55.2 E123.68974
G1 X164.8 Y164.8 E128.79318
G1 X55.2 Y164.8 E133.89661
G0 F6000 X55.4 Y164.6
G1 F1500 E127.39661
G0 F6000 X65.3 Y164.5
G0 X65.3 Y163.835
G0 X65.3 Y155.665
G0 X65.3 Y154.98
G0 X65.3 Y154.7
G1 F1500 E133.89661
G1 F1200 X154.7 Y154.7 E138.05945
G1 X154.7 Y65.3 E142.22229
G1 X65.3 Y65.3 E146.38513
G1 X65.3 Y154.7 E150.54796
G0 F6000 X65.2 Y154.8
G1 F1200 X65.2 Y65.2 E154.72012
G1 X154.8 Y65.2 E158.89227
G1 X154.8 Y154.8 E163.06442
G1 X65.2 Y154.8 E167.23657
G0 F6000 X65.4 Y154.6
G1 F1500 E160.73657
G0 F6000 X75.3 Y154.5
G0 X75.3 Y153.835
G0 X75.3 Y145.665
G0 X75.3 Y144.98
G0 X75.3 Y144.7
G1 F1500 E167.23657
G1 F1200 X144.7 Y144.7 E170.46812
G1 X144.7 Y75.3 E173.69968
G1 X75.3 Y75.3 E176.93123
G1 X75.3 Y144.7 E180.16279
G0 F6000 X75.2 Y144.8
G1 F1200 X75.2 Y75.2 E183.40366
G1 X144.8 Y75.2 E186.64452
G1 X144.8 Y144.8 E189.88539
G1 X75.2 Y144.8 E193.12626
G0 F6000 X75.4 Y144.6
G1 F1500 E186.62626
G0 F6000 X85.3 Y144.5
G0 X85.3 Y143.835
G0 X85.3 Y135.665
G0 X85.3 Y134.98
G0 X85.3 Y134.7
G1 F1500 E193.12626
G1 F1200 X134.7 Y134.7 E195.42653
G1 X134.7 Y85.3 E197.7268
G1 X85.3 Y85.3 E200.02707
G1 X85.3 Y134.7 E202.32734
G0 F6000 X85.2 Y134.8
G1 F1200 X85.2 Y85.2 E204.63693
G1 X134.8 Y85.2 E206.94651
G1 X134.8 Y134.8 E209.25609
G1 X85.2 Y134.8 E211.56568
G0 F6000 X85.4 Y134.6
G1 F1500 E205.06568
G0 F6000 X95.3 Y134.5
G0 X95.3 Y133.835
G0 X95.3 Y125.665
G0 X95.3 Y124.98
G0 X95.3 Y124.7
G1 F1500 E211.56568
G1 F1200 X124.7 Y124.7 E212.93466
G1 X124.7 Y95.3 E214.30365
G1 X95.3 Y95.3 E215.67264
G1 X95.3 Y124.7 E217.04163
G0 F6000 X95.2 Y124.8
G1 F1200 X95.2 Y95.2 E218.41993
G1 X124.8 Y95.2 E219.79823
G1 X124.8 Y124.8 E221.17653
G1 X95.2 Y124.8 E222.55483
G0 F6000 X95.4 Y124.6
G1 F1500 E216.05483
G0 F6000 X95.014 Y124.986
G0 X95.014 Y125.665
G0 X95.014 Y173.835
G0 X95.014 Y174.5
G0 X45.3 Y174.7
G1 F1500 E222.55483
G1 F1200 X174.7 Y174.7 E228.58023
G1 X174.7 Y45.3 E234.60564
G1 X45.3 Y45.3 E240.63104
G1 X45.3 Y174.7 E246.65645
G0 F6000 X45.2 Y174.8
G1 F1200 X45.2 Y45.2 E252.69117
G1 X174.8 Y45.2 E258.72589
G1 X174.8 Y174.8 E264.76061
G1 X45.2 Y174.8 E270.79533
G0 F6000 X45.4 Y174.6
G1 F1500 E264.29533
G0 F6000 X45.014 Y174.986
G0 X45.014 Y175.665
G0 X45.014 Y183.835
G0 X45.014 Y184.5
G0 X35.3 Y184.7
G1 F1500 E270.79533
G1 F1200 X184.7 Y184.7 E277.75202
G1 X184.7 Y35.3 E284.70871
G1 X35.3 Y35.3 E291.6654
G1 X35.3 Y184.7 E298.62209
G0 F6000 X35.2 Y184.8
G1 F1200 X35.2 Y35.2 E305.58809
G1 X184.8 Y35.2 E312.55409
G1 X184.8 Y184.8 E319.52009
G1 X35.2 Y184.8 E326.4861
G0 F6000 X35.4 Y184.6
G1 F1500 E319.9861
;MESH:NONMESH
G0 F300 X35.4 Y184.6 Z0.56
G0 F6000 X55.3 Y184.5
G0 X55.3 Y183.835
G0 X55.3 Y165.665
G0 X55.3 Y164.98
G0 X55.3 Y164.7
;TIME_ELAPSED:366.927919
;LAYER:1
M140 S60
M106 S85
;TYPE:WALL-OUTER
;MESH:bed_level_test.STL
G1 F1500 E326.4861
G1 F1350 X164.7 Y164.7 E331.58022
G1 X164.7 Y55.3 E336.67434
G1 X55.3 Y55.3 E341.76846
G1 X55.3 Y164.7 E346.86259
G0 F7500 X55.2 Y164.8
G1 F1350 X55.2 Y55.2 E351.96602
G1 X164.8 Y55.2 E357.06946
G1 X164.8 Y164.8 E362.17289
G1 X55.2 Y164.8 E367.27633
G0 F7500 X55.4 Y164.6
G1 F1500 E360.77633
G0 F7500 X65.3 Y164.5
G0 X65.3 Y163.835
G0 X65.3 Y155.665
G0 X65.3 Y154.98
G0 X65.3 Y154.7
G1 F1500 E367.27633
G1 F1350 X154.7 Y154.7 E371.43916
G1 X154.7 Y65.3 E375.602
G1 X65.3 Y65.3 E379.76484
G1 X65.3 Y154.7 E383.92768
G0 F7500 X65.2 Y154.8
G1 F1350 X65.2 Y65.2 E388.09983
G1 X154.8 Y65.2 E392.27198
G1 X154.8 Y154.8 E396.44413
G1 X65.2 Y154.8 E400.61629
G0 F7500 X65.4 Y154.6
G1 F1500 E394.11629
G0 F7500 X75.3 Y154.5
G0 X75.3 Y153.835
G0 X75.3 Y145.665
G0 X75.3 Y144.98
G0 X75.3 Y144.7
G1 F1500 E400.61629
G1 F1350 X144.7 Y144.7 E403.84784
G1 X144.7 Y75.3 E407.07939
G1 X75.3 Y75.3 E410.31095
G1 X75.3 Y144.7 E413.5425
G0 F7500 X75.2 Y144.8
G1 F1350 X75.2 Y75.2 E416.78337
G1 X144.8 Y75.2 E420.02424
G1 X144.8 Y144.8 E423.26511
G1 X75.2 Y144.8 E426.50597
G0 F7500 X75.4 Y144.6
G1 F1500 E420.00597
G0 F7500 X85.3 Y144.5
G0 X85.3 Y143.835
G0 X85.3 Y135.665
G0 X85.3 Y134.98
G0 X85.3 Y134.7
G1 F1500 E426.50597
G1 F1350 X134.7 Y134.7 E428.80625
G1 X134.7 Y85.3 E431.10652
G1 X85.3 Y85.3 E433.40679
G1 X85.3 Y134.7 E435.70706
G0 F7500 X85.2 Y134.8
G1 F1350 X85.2 Y85.2 E438.01664
G1 X134.8 Y85.2 E440.32623
G1 X134.8 Y134.8 E442.63581
G1 X85.2 Y134.8 E444.94539
G0 F7500 X85.4 Y134.6
G1 F1500 E438.44539
G0 F7500 X95.3 Y134.5
G0 X95.3 Y133.835
G0 X95.3 Y125.665
G0 X95.3 Y124.98
G0 X95.3 Y124.7
G1 F1500 E444.94539
G1 F1350 X124.7 Y124.7 E446.31438
G1 X124.7 Y95.3 E447.68337
G1 X95.3 Y95.3 E449.05235
G1 X95.3 Y124.7 E450.42134
G0 F7500 X95.2 Y124.8
G1 F1350 X95.2 Y95.2 E451.79964
G1 X124.8 Y95.2 E453.17794
G1 X124.8 Y124.8 E454.55624
G1 X95.2 Y124.8 E455.93454
G0 F7500 X95.4 Y124.6
G1 F1500 E449.43454
G0 F7500 X95.014 Y124.986
G0 X95.014 Y125.665
G0 X95.014 Y173.835
G0 X95.014 Y174.5
G0 X45.3 Y174.7
G1 F1500 E455.93454
G1 F1350 X174.7 Y174.7 E461.95995
G1 X174.7 Y45.3 E467.98535
G1 X45.3 Y45.3 E474.01076
G1 X45.3 Y174.7 E480.03617
G0 F7500 X45.2 Y174.8
G1 F1350 X45.2 Y45.2 E486.07089
G1 X174.8 Y45.2 E492.1056
G1 X174.8 Y174.8 E498.14032
G1 X45.2 Y174.8 E504.17504
G0 F7500 X45.4 Y174.6
G1 F1500 E497.67504
G0 F7500 X45.014 Y174.986
G0 X45.014 Y175.665
G0 X45.014 Y183.835
G0 X45.014 Y184.5
G0 X35.3 Y184.7
G1 F1500 E504.17504
G1 F1350 X184.7 Y184.7 E511.13173
G1 X184.7 Y35.3 E518.08842
G1 X35.3 Y35.3 E525.04511
G1 X35.3 Y184.7 E532.0018
G0 F7500 X35.2 Y184.8
G1 F1350 X35.2 Y35.2 E538.9678
G1 X184.8 Y35.2 E545.93381
G1 X184.8 Y184.8 E552.89981
G1 X35.2 Y184.8 E559.86581
G0 F7500 X35.4 Y184.6
G1 F1500 E553.36581
;MESH:NONMESH
G0 F300 X35.4 Y184.6 Z0.84
G0 F7500 X55.3 Y184.5
G0 X55.3 Y183.835
G0 X55.3 Y165.665
G0 X55.3 Y164.98
G0 X55.3 Y164.7
;TIME_ELAPSED:599.476155
;LAYER:2
M106 S170
;TYPE:WALL-OUTER
;MESH:bed_level_test.STL
G1 F1500 E559.86581
G1 X164.7 Y164.7 E564.95993
G1 X164.7 Y55.3 E570.05406
G1 X55.3 Y55.3 E575.14818
G1 X55.3 Y164.7 E580.2423
G0 F9000 X55.2 Y164.8
G1 F1500 X55.2 Y55.2 E585.34574
G1 X164.8 Y55.2 E590.44917
G1 X164.8 Y164.8 E595.55261
G1 X55.2 Y164.8 E600.65604
G0 F9000 X55.4 Y164.6
G1 F1500 E594.15604
G0 F9000 X65.3 Y164.5
G0 X65.3 Y163.835
G0 X65.3 Y155.665
G0 X65.3 Y154.98
G0 X65.3 Y154.7
G1 F1500 E600.65604
G1 X154.7 Y154.7 E604.81888
G1 X154.7 Y65.3 E608.98172
G1 X65.3 Y65.3 E613.14456
G1 X65.3 Y154.7 E617.3074
G0 F9000 X65.2 Y154.8
G1 F1500 X65.2 Y65.2 E621.47955
G1 X154.8 Y65.2 E625.6517
G1 X154.8 Y154.8 E629.82385
G1 X65.2 Y154.8 E633.996
G0 F9000 X65.4 Y154.6
G1 F1500 E627.496
G0 F9000 X75.3 Y154.5
G0 X75.3 Y153.835
G0 X75.3 Y145.665
G0 X75.3 Y144.98
G0 X75.3 Y144.7
G1 F1500 E633.996
G1 X144.7 Y144.7 E637.22756
G1 X144.7 Y75.3 E640.45911
G1 X75.3 Y75.3 E643.69067
G1 X75.3 Y144.7 E646.92222
G0 F9000 X75.2 Y144.8
