;FLAVOR:Marlin
;TIME:953
;Filament used: 0.584098m
;Layer height: 0.2
;MINX:74.288
;MINY:74.288
;MINZ:0.2
;MAXX:160.712
;MAXY:160.712
;MAXZ:0.2
;Generated with Cura_SteamEngine 4.4.0
M82 ;absolute extrusion mode
;M117 Printing...
; Ender 3 Custom Start G-code
M140 S70 ; Set Heat Bed temperature
M190 S70 ; Wait for Heat Bed temperature
M104 S160; start warming extruder to 160
G28 ; Home all axes
G29 ; Auto bed-level (BL-Touch)

;G92 E0 ; Reset Extruder

M92 E97.938; set the e-steps to
M104 S220 ; Set Extruder temperature
G1 X0.1 Y20 Z0.3 F5000.0 ; Move to start position
M109 S220 ; Wait for Extruder temperature
; G1 Z2.0 F3000 ; Move Z Axis up little to prevent scratching of Heat Bed
G1 X0.1 Y200.0 Z0.3 F1500.0 E15 ; Draw the first line
G1 X0.4 Y200.0 Z0.3 F5000.0 ; Move to side a little
G1 X0.4 Y20 Z0.3 F1500.0 E30 ; Draw the second line
G92 E0 ; Reset Extruder
G1 Z2.0 F3000 ; Move Z Axis up little to prevent scratching of Heat Bed
; End of custom start GCode
G92 E0
G92 E0
G1 F1500 E-5
;LAYER_COUNT:2
;LAYER:0
M107
M204 S500
M205 X20 Y20
G0 F6000 X86.963 Y86.927 Z0.2
M204 S1000
;TYPE:SKIRT
G1 F1500 E0
G1 F2400 X87.062 Y86.829 E0.00834
G1 X87.452 Y86.45 E0.0409
G1 X87.493 Y86.41 E0.04433
G1 X87.975 Y85.951 E0.08417
G1 X88.046 Y85.884 E0.09002
G1 X88.586 Y85.387 E0.13396
G1 X88.692 Y85.293 E0.14244
G1 X89.078 Y84.955 E0.17315
G1 X89.132 Y84.907 E0.17748
G1 X89.651 Y84.464 E0.21833
G1 X89.703 Y84.421 E0.22237
G1 X90.285 Y83.936 E0.26773
G1 X90.401 Y83.842 E0.27667
G1 X90.782 Y83.541 E0.30573
G1 X90.84 Y83.496 E0.31013
G1 X91.343 Y83.109 E0.34812
G1 X91.406 Y83.061 E0.35287
G1 X92.064 Y82.569 E0.40205
G1 X92.181 Y82.483 E0.41075
G1 X92.593 Y82.191 E0.44098
G1 X92.657 Y82.147 E0.44563
G1 X93.177 Y81.789 E0.48343
G1 X93.235 Y81.749 E0.48764
G1 X93.924 Y81.287 E0.53731
G1 X94.042 Y81.21 E0.54574
G1 X94.352 Y81.013 E0.56773
G1 X94.411 Y80.976 E0.5719
G1 X95.035 Y80.59 E0.61583
G1 X95.108 Y80.546 E0.62093
G1 X95.77 Y80.15 E0.66712
G1 X95.893 Y80.079 E0.67562
G1 X96.325 Y79.835 E0.70532
G1 X96.378 Y79.805 E0.70897
G1 X96.888 Y79.524 E0.74383
G1 X96.965 Y79.482 E0.74908
G1 X97.707 Y79.088 E0.79938
G1 X97.837 Y79.021 E0.80813
G1 X98.266 Y78.807 E0.83683
G1 X98.319 Y78.781 E0.84037
G1 X98.815 Y78.54 E0.87338
G1 X98.893 Y78.503 E0.87855
G1 X99.734 Y78.11 E0.93412
G1 X99.858 Y78.054 E0.94227
G1 X100.168 Y77.918 E0.96254
G1 X100.229 Y77.891 E0.96653
G1 X100.808 Y77.645 E1.00419
G1 X100.881 Y77.615 E1.00892
G1 X101.691 Y77.284 E1.0613
G1 X101.807 Y77.238 E1.06878
G1 X102.159 Y77.103 E1.09135
G1 X102.244 Y77.071 E1.09678
G1 X102.816 Y76.862 E1.13324
G1 X102.877 Y76.841 E1.1371
G1 X103.688 Y76.555 E1.18859
G1 X103.832 Y76.506 E1.19769
G1 X104.188 Y76.391 E1.22009
G1 X104.242 Y76.374 E1.22348
G1 X104.822 Y76.193 E1.25986
G1 X104.896 Y76.17 E1.2645
G1 X105.757 Y75.914 E1.31827
G1 X105.887 Y75.877 E1.32636
G1 X106.152 Y75.805 E1.3428
G1 X106.22 Y75.787 E1.34702
G1 X106.827 Y75.63 E1.38455
G1 X106.896 Y75.613 E1.38881
G1 X107.76 Y75.401 E1.44207
G1 X107.92 Y75.364 E1.4519
G1 X108.771 Y75.181 E1.50401
G1 X108.879 Y75.159 E1.51061
G1 X109.833 Y74.973 E1.5688
G1 X110.007 Y74.942 E1.57938
G1 X110.822 Y74.809 E1.62882
G1 X110.943 Y74.79 E1.63615
G1 X112.054 Y74.633 E1.70333
G1 X112.207 Y74.614 E1.71256
G1 X112.831 Y74.543 E1.75016
G1 X112.914 Y74.534 E1.75515
G1 X113.823 Y74.444 E1.80984
G1 X113.991 Y74.43 E1.81993
G1 X114.741 Y74.378 E1.86494
G1 X114.83 Y74.372 E1.87028
G1 X115.78 Y74.321 E1.92724
G1 X115.945 Y74.315 E1.93712
G1 X116.672 Y74.297 E1.98066
G1 X116.773 Y74.295 E1.98671
G1 X117.754 Y74.288 E2.04544
G1 X117.905 Y74.289 E2.05448
G1 X118.578 Y74.302 E2.09478
G1 X118.678 Y74.305 E2.10077
G1 X119.659 Y74.341 E2.15954
G1 X119.827 Y74.349 E2.16961
G1 X120.507 Y74.394 E2.21041
G1 X120.596 Y74.401 E2.21575
G1 X121.633 Y74.486 E2.27804
G1 X121.799 Y74.502 E2.28803
G1 X122.526 Y74.583 E2.33182
G1 X122.617 Y74.594 E2.33731
G1 X123.597 Y74.719 E2.39646
G1 X123.775 Y74.745 E2.40723
G1 X124.57 Y74.872 E2.45542
G1 X124.663 Y74.887 E2.46106
G1 X125.518 Y75.038 E2.51304
G1 X125.63 Y75.059 E2.51987
G1 X125.924 Y75.117 E2.53781
G1 X125.991 Y75.131 E2.5419
G1 X126.573 Y75.253 E2.5775
G1 X126.649 Y75.269 E2.58215
G1 X127.515 Y75.463 E2.63529
G1 X127.662 Y75.498 E2.64433
G1 X127.92 Y75.563 E2.66026
G1 X127.969 Y75.576 E2.6633
G1 X128.585 Y75.737 E2.70141
G1 X128.66 Y75.757 E2.70606
G1 X129.552 Y76.003 E2.76146
G1 X129.69 Y76.043 E2.77006
G1 X129.921 Y76.113 E2.78451
G1 X129.966 Y76.127 E2.78733
G1 X130.626 Y76.333 E2.82872
G1 X130.704 Y76.358 E2.83363
G1 X131.494 Y76.617 E2.8834
G1 X131.63 Y76.663 E2.892
G1 X131.984 Y76.789 E2.91449
G1 X132.04 Y76.809 E2.91805
G1 X132.614 Y77.02 E2.95466
G1 X132.689 Y77.049 E2.95948
G1 X133.515 Y77.366 E3.01245
G1 X133.641 Y77.416 E3.02056
G1 X133.945 Y77.541 E3.04024
G1 X134.014 Y77.569 E3.0447
G1 X134.605 Y77.821 E3.08316
G1 X134.672 Y77.851 E3.08756
G1 X135.505 Y78.219 E3.14208
G1 X135.63 Y78.276 E3.1503
G1 X135.938 Y78.421 E3.17068
G1 X136 Y78.451 E3.17481
G1 X136.554 Y78.72 E3.21168
G1 X136.627 Y78.755 E3.21652
G1 X137.414 Y79.151 E3.26927
G1 X137.533 Y79.213 E3.2773
G1 X137.942 Y79.431 E3.30505
G1 X138.013 Y79.469 E3.30987
G1 X138.532 Y79.755 E3.34535
G1 X138.594 Y79.79 E3.34961
G1 X139.343 Y80.215 E3.40117
G1 X139.467 Y80.288 E3.40978
G1 X139.793 Y80.484 E3.43255
G1 X139.861 Y80.525 E3.43731
G1 X140.472 Y80.904 E3.48035
G1 X140.533 Y80.942 E3.48466
G1 X141.201 Y81.368 E3.53209
G1 X141.327 Y81.451 E3.54112
G1 X141.669 Y81.682 E3.56583
G1 X141.718 Y81.716 E3.5694
G1 X142.268 Y82.096 E3.60942
G1 X142.331 Y82.14 E3.61402
G1 X143.016 Y82.627 E3.66434
G1 X143.138 Y82.716 E3.67338
G1 X143.496 Y82.985 E3.70019
G1 X143.552 Y83.028 E3.70442
G1 X144.067 Y83.425 E3.74335
G1 X144.125 Y83.47 E3.74774
G1 X144.806 Y84.009 E3.79974
G1 X144.933 Y84.112 E3.80953
G1 X145.194 Y84.331 E3.82992
G1 X145.232 Y84.364 E3.83294
G1 X145.788 Y84.839 E3.87672
G1 X145.857 Y84.898 E3.88215
G1 X146.467 Y85.436 E3.93085
G1 X146.573 Y85.533 E3.93945
G1 X146.947 Y85.88 E3.96999
G1 X146.987 Y85.917 E3.97325
G1 X147.448 Y86.353 E4.01124
G1 X147.522 Y86.424 E4.01738
G1 X148.073 Y86.964 E4.06357
G1 X148.171 Y87.063 E4.07191
G1 X148.55 Y87.453 E4.10447
G1 X148.586 Y87.49 E4.10756
G1 X149.045 Y87.971 E4.14736
G1 X149.112 Y88.042 E4.15321
G1 X149.61 Y88.582 E4.19718
G1 X149.709 Y88.693 E4.20609
G1 X150.046 Y89.078 E4.23672
G1 X150.093 Y89.131 E4.24096
G1 X150.536 Y89.65 E4.28181
G1 X150.582 Y89.706 E4.28615
G1 X151.067 Y90.289 E4.33155
G1 X151.16 Y90.403 E4.34036
G1 X151.46 Y90.783 E4.36935
G1 X151.502 Y90.838 E4.37349
G1 X151.89 Y91.342 E4.41157
G1 X151.939 Y91.406 E4.41639
G1 X152.431 Y92.064 E4.46558
G1 X152.517 Y92.181 E4.47427
G1 X152.809 Y92.593 E4.50451
G1 X152.849 Y92.651 E4.50872
G1 X153.208 Y93.171 E4.54655
G1 X153.252 Y93.235 E4.5512
G1 X153.714 Y93.924 E4.60087
G1 X153.789 Y94.04 E4.60914
G1 X153.969 Y94.323 E4.62922
G1 X154.008 Y94.384 E4.63355
G1 X154.41 Y95.034 E4.67931
G1 X154.456 Y95.11 E4.68463
G1 X154.852 Y95.773 E4.73086
G1 X154.921 Y95.893 E4.73915
G1 X155.165 Y96.325 E4.76885
G1 X155.195 Y96.378 E4.7725
G1 X155.476 Y96.888 E4.80736
G1 X155.518 Y96.965 E4.81261
G1 X155.912 Y97.707 E4.8629
G1 X155.979 Y97.837 E4.87166
G1 X156.193 Y98.266 E4.90036
G1 X156.218 Y98.317 E4.90376
G1 X156.45 Y98.794 E4.93552
G1 X156.487 Y98.871 E4.94063
G1 X156.889 Y99.73 E4.99741
G1 X156.948 Y99.862 E5.00607
G1 X157.081 Y100.166 E5.02593
G1 X157.105 Y100.222 E5.02958
G1 X157.354 Y100.808 E5.0677
G1 X157.385 Y100.881 E5.07245
G1 X157.716 Y101.691 E5.12483
G1 X157.762 Y101.807 E5.13231
G1 X157.897 Y102.159 E5.15488
G1 X157.929 Y102.244 E5.16031
G1 X158.138 Y102.816 E5.19677
G1 X158.159 Y102.877 E5.20063
G1 X158.445 Y103.688 E5.25212
G1 X158.494 Y103.832 E5.26122
G1 X158.609 Y104.188 E5.28362
G1 X158.625 Y104.239 E5.28682
G1 X158.806 Y104.818 E5.32314
G1 X158.83 Y104.896 E5.32803
G1 X159.082 Y105.744 E5.38099
G1 X159.118 Y105.87 E5.38883
G1 X159.194 Y106.149 E5.40615
G1 X159.213 Y106.22 E5.41055
G1 X159.37 Y106.827 E5.44808
G1 X159.387 Y106.896 E5.45234
G1 X159.599 Y107.76 E5.5056
G1 X159.636 Y107.918 E5.51531
G1 X159.808 Y108.716 E5.56418
G1 X159.83 Y108.823 E5.57072
G1 X160.027 Y109.83 E5.63215
G1 X160.058 Y110.007 E5.64291
G1 X160.191 Y110.822 E5.69235
G1 X160.21 Y110.943 E5.69968
G1 X160.367 Y112.054 E5.76686
G1 X160.386 Y112.206 E5.77603
G1 X160.457 Y112.829 E5.81357
G1 X160.466 Y112.914 E5.81868
G1 X160.556 Y113.824 E5.87343
G1 X160.57 Y113.991 E5.88346
G1 X160.622 Y114.741 E5.92847
G1 X160.628 Y114.83 E5.93381
G1 X160.679 Y115.779 E5.99071
G1 X160.685 Y115.945 E6.00065
G1 X160.703 Y116.673 E6.04425
G1 X160.705 Y116.773 E6.05024
G1 X160.712 Y117.754 E6.10897
G1 X160.711 Y117.905 E6.11801
G1 X160.698 Y118.578 E6.15831
G1 X160.695 Y118.678 E6.1643
G1 X160.659 Y119.66 E6.22313
G1 X160.65 Y119.829 E6.23326
G1 X160.605 Y120.507 E6.27394
G1 X160.599 Y120.595 E6.27922
G1 X160.514 Y121.632 E6.34151
G1 X160.498 Y121.798 E6.3515
G1 X160.417 Y122.526 E6.39535
G1 X160.406 Y122.617 E6.40084
G1 X160.281 Y123.596 E6.45993
G1 X160.256 Y123.773 E6.47063
G1 X160.129 Y124.569 E6.51889
G1 X160.113 Y124.663 E6.52459
G1 X159.962 Y125.518 E6.57657
G1 X159.94 Y125.634 E6.58364
G1 X159.882 Y125.927 E6.60152
G1 X159.869 Y125.99 E6.60538
G1 X159.747 Y126.572 E6.64098
G1 X159.731 Y126.648 E6.64563
G1 X159.537 Y127.514 E6.69876
G1 X159.492 Y127.699 E6.71016
G1 X159.265 Y128.575 E6.76433
G1 X159.243 Y128.657 E6.76942
G1 X158.998 Y129.548 E6.82474
G1 X158.947 Y129.722 E6.83559
G1 X158.671 Y130.614 E6.89149
G1 X158.643 Y130.703 E6.89708
G1 X158.385 Y131.491 E6.94672
G1 X158.324 Y131.667 E6.95787
G1 X157.986 Y132.596 E7.01706
G1 X157.951 Y132.689 E7.023
G1 X157.634 Y133.515 E7.07597
G1 X157.586 Y133.637 E7.08382
G1 X157.481 Y133.893 E7.10039
G1 X157.454 Y133.958 E7.1046
G1 X157.183 Y134.596 E7.1461
G1 X157.149 Y134.674 E7.15119
G1 X156.78 Y135.508 E7.20579
G1 X156.724 Y135.63 E7.21383
G1 X156.579 Y135.938 E7.23421
G1 X156.548 Y136.004 E7.23858
G1 X156.279 Y136.557 E7.27539
G1 X156.246 Y136.623 E7.27981
G1 X155.85 Y137.411 E7.33261
G1 X155.787 Y137.533 E7.34083
G1 X155.569 Y137.942 E7.36857
G1 X155.533 Y138.009 E7.37313
G1 X155.248 Y138.527 E7.40852
G1 X155.211 Y138.593 E7.41305
G1 X154.786 Y139.342 E7.46461
G1 X154.71 Y139.472 E7.47363
G1 X154.531 Y139.769 E7.49439
G1 X154.493 Y139.831 E7.49874
G1 X154.096 Y140.471 E7.54383
G1 X154.06 Y140.528 E7.54787
G1 X153.634 Y141.197 E7.59535
G1 X153.551 Y141.324 E7.60443
G1 X153.321 Y141.665 E7.62906
G1 X153.285 Y141.717 E7.63284
G1 X152.905 Y142.267 E7.67286
G1 X152.86 Y142.332 E7.6776
G1 X152.372 Y143.018 E7.728
G1 X152.284 Y143.138 E7.73691
G1 X152.03 Y143.476 E7.76222
G1 X151.99 Y143.529 E7.7662
G1 X151.592 Y144.046 E7.80526
G1 X151.544 Y144.107 E7.8099
G1 X150.99 Y144.807 E7.86335
G1 X150.892 Y144.927 E7.87262
G1 X150.672 Y145.19 E7.89315
G1 X150.632 Y145.238 E7.89689
G1 X150.159 Y145.791 E7.94046
G1 X150.102 Y145.857 E7.94568
G1 X149.564 Y146.467 E7.99437
G1 X149.474 Y146.566 E8.00238
G1 X149.155 Y146.911 E8.03051
G1 X149.113 Y146.956 E8.0342
G1 X148.65 Y147.446 E8.07456
G1 X148.577 Y147.522 E8.08087
G1 X148.037 Y148.073 E8.12706
G1 X147.945 Y148.165 E8.13484
G1 X147.588 Y148.513 E8.16469
G1 X147.538 Y148.561 E8.16884
G1 X147.023 Y149.051 E8.2114
G1 X146.954 Y149.116 E8.21707
G1 X146.414 Y149.613 E8.26101
G1 X146.308 Y149.707 E8.26949
G1 X145.922 Y150.045 E8.30021
G1 X145.868 Y150.093 E8.30454
G1 X145.349 Y150.536 E8.34539
G1 X145.297 Y150.579 E8.34943
G1 X144.715 Y151.064 E8.39478
G1 X144.593 Y151.163 E8.40419
G1 X144.216 Y151.46 E8.43292
G1 X144.169 Y151.497 E8.4365
G1 X143.671 Y151.881 E8.47415
G1 X143.605 Y151.931 E8.47911
G1 X142.938 Y152.43 E8.52898
G1 X142.82 Y152.516 E8.53772
G1 X142.435 Y152.789 E8.56598
G1 X142.377 Y152.829 E8.57019
G1 X141.837 Y153.202 E8.60949
G1 X141.768 Y153.249 E8.61448
G1 X141.072 Y153.715 E8.66463
G1 X140.956 Y153.791 E8.67293
G1 X140.652 Y153.984 E8.69449
G1 X140.597 Y154.019 E8.69839
G1 X139.967 Y154.409 E8.74275
G1 X139.892 Y154.454 E8.74799
G1 X139.23 Y154.85 E8.79417
G1 X139.107 Y154.921 E8.80267
G1 X138.675 Y155.165 E8.83238
G1 X138.62 Y155.196 E8.83616
G1 X138.115 Y155.474 E8.87067
G1 X138.041 Y155.514 E8.8757
G1 X137.294 Y155.911 E8.92635
G1 X137.163 Y155.979 E8.93519
G1 X136.734 Y156.193 E8.96389
G1 X136.681 Y156.219 E8.96742
G1 X136.185 Y156.46 E9.00044
G1 X136.107 Y156.497 E9.0056
G1 X135.266 Y156.89 E9.06118
G1 X135.143 Y156.946 E9.06927
G1 X134.84 Y157.079 E9.08908
G1 X134.778 Y157.105 E9.09311
G1 X134.192 Y157.354 E9.13123
G1 X134.119 Y157.385 E9.13597
G1 X133.309 Y157.716 E9.18836
G1 X133.193 Y157.762 E9.19583
G1 X132.841 Y157.897 E9.2184
G1 X132.756 Y157.929 E9.22384
G1 X132.184 Y158.138 E9.2603
G1 X132.123 Y158.159 E9.26416
G1 X131.312 Y158.445 E9.31564
G1 X131.168 Y158.494 E9.32475
G1 X130.812 Y158.609 E9.34715
G1 X130.758 Y158.626 E9.35054
G1 X130.178 Y158.807 E9.38691
G1 X130.104 Y158.83 E9.39155
G1 X129.243 Y159.086 E9.44533
G1 X129.113 Y159.123 E9.45342
G1 X128.848 Y159.195 E9.46986
G1 X128.78 Y159.213 E9.47407
G1 X128.173 Y159.37 E9.51161
G1 X128.104 Y159.387 E9.51586
G1 X127.24 Y159.599 E9.56912
G1 X127.08 Y159.636 E9.57895
G1 X126.229 Y159.819 E9.63107
G1 X126.121 Y159.841 E9.63766
G1 X125.167 Y160.027 E9.69585
G1 X124.993 Y160.058 E9.70644
G1 X124.178 Y160.191 E9.75587
G1 X124.057 Y160.21 E9.76321
G1 X122.946 Y160.367 E9.83038
G1 X122.793 Y160.386 E9.83961
G1 X122.169 Y160.457 E9.87721
G1 X122.086 Y160.466 E9.88221
G1 X121.177 Y160.556 E9.93689
G1 X121.009 Y160.57 E9.94699
G1 X120.259 Y160.622 E9.992
G1 X120.17 Y160.628 E9.99734
G1 X119.22 Y160.679 E10.05429
G1 X119.055 Y160.685 E10.06418
G1 X118.328 Y160.703 E10.10772
G1 X118.227 Y160.705 E10.11376
G1 X117.246 Y160.712 E10.1725
G1 X117.095 Y160.711 E10.18154
G1 X116.422 Y160.698 E10.22183
G1 X116.322 Y160.695 E10.22782
G1 X115.34 Y160.659 E10.28665
G1 X115.171 Y160.65 E10.29679
G1 X114.493 Y160.605 E10.33747
G1 X114.405 Y160.599 E10.34275
G1 X113.368 Y160.514 E10.40504
G1 X113.202 Y160.498 E10.41502
G1 X112.474 Y160.417 E10.45888
G1 X112.383 Y160.406 E10.46436
G1 X111.404 Y160.281 E10.52345
G1 X111.227 Y160.256 E10.53415
G1 X110.431 Y160.129 E10.58241
G1 X110.337 Y160.113 E10.58812
G1 X109.482 Y159.962 E10.6401
G1 X109.366 Y159.94 E10.64717
G1 X109.073 Y159.882 E10.66505
G1 X109.01 Y159.869 E10.6689
G1 X108.428 Y159.747 E10.7045
G1 X108.352 Y159.731 E10.70915
G1 X107.486 Y159.537 E10.76228
G1 X107.301 Y159.492 E10.77368
G1 X106.425 Y159.265 E10.82786
G1 X106.343 Y159.243 E10.83294
G1 X105.452 Y158.998 E10.88826
G1 X105.317 Y158.959 E10.89667
G1 X105.085 Y158.889 E10.91118
G1 X105.033 Y158.873 E10.91444
G1 X104.373 Y158.667 E10.95583
G1 X104.297 Y158.643 E10.9606
G1 X103.509 Y158.385 E11.01024
G1 X103.333 Y158.324 E11.0214
G1 X102.404 Y157.986 E11.08058
G1 X102.311 Y157.951 E11.08653
G1 X101.485 Y157.634 E11.1395
G1 X101.359 Y157.584 E11.14761
G1 X101.055 Y157.459 E11.16729
G1 X100.991 Y157.432 E11.17145
G1 X100.401 Y157.181 E11.20984
G1 X100.326 Y157.149 E11.21472
G1 X99.492 Y156.78 E11.26932
G1 X99.37 Y156.724 E11.27735
G1 X99.062 Y156.579 E11.29773
G1 X98.996 Y156.548 E11.3021
G1 X98.443 Y156.279 E11.33892
G1 X98.377 Y156.246 E11.34333
G1 X97.589 Y155.85 E11.39613
G1 X97.467 Y155.787 E11.40435
G1 X97.058 Y155.569 E11.4321
G1 X96.987 Y155.531 E11.43692
G1 X96.468 Y155.245 E11.4724
G1 X96.408 Y155.211 E11.47653
G1 X95.66 Y154.787 E11.528
G1 X95.529 Y154.711 E11.53707
G1 X95.202 Y154.514 E11.55992
G1 X95.135 Y154.473 E11.56463
G1 X94.525 Y154.094 E11.60762
G1 X94.472 Y154.06 E11.61139
G1 X93.803 Y153.634 E11.65887
G1 X93.673 Y153.549 E11.66817
G1 X93.331 Y153.318 E11.69288
G1 X93.282 Y153.284 E11.69645
G1 X92.732 Y152.904 E11.73647
G1 X92.669 Y152.86 E11.74107
G1 X91.984 Y152.373 E11.79139
G1 X91.862 Y152.284 E11.80043
G1 X91.504 Y152.015 E11.82724
G1 X91.448 Y151.972 E11.83147
G1 X90.933 Y151.575 E11.8704
G1 X90.874 Y151.529 E11.87488
G1 X90.192 Y150.989 E11.92696
G1 X90.073 Y150.892 E11.93615
G1 X89.81 Y150.672 E11.95667
G1 X89.761 Y150.631 E11.9605
G1 X89.207 Y150.157 E12.00415
G1 X89.143 Y150.101 E12.00924
G1 X88.534 Y149.564 E12.05785
G1 X88.432 Y149.472 E12.06607
G1 X88.057 Y149.125 E12.09666
