;FLAVOR:Marlin
;TIME:1371
;Filament used: 0.901757m
;Layer height: 0.2
;MINX:32.68
;MINY:32.68
;MINZ:0.3
;MAXX:202.32
;MAXY:202.32
;MAXZ:0.3
;Generated with Cura_SteamEngine 4.4.0
M140 S60
M105
M190 S60
M104 S220
M105
M109 S220
M82 ;absolute extrusion mode
;Start GCode Cura 14.07
;Basic settings:
;Layer height: 0.2
;Walls: 1.2 Fill: {fill_density}
;Print time: 00:22:52
;Filament used:
;[0.9]m [2.68953578125]g
;Filament cost: [0.0]
;M190 S75 ;60
;M109 S220 ;220
G21 ;metric values
G90 ;absolute positioning
M82 ;set extruder to absolute mode
G28 X0 Y0 ;move X/Y to min endstops
G28 Z0 ;move Z to min endstops
G1 Z15.0 F100.0 ;move the platform down 15mm
G92 E0 ;zero the extruded length

M117 Printing...
G92 E0
G92 E0
G1 F1500 E-0.5
;LAYER_COUNT:1
;LAYER:0
M106 S102
;MESH:Screw_Adjust.stl
G0 F1500 X32.68 Y52.32 Z0.3
;TYPE:WALL-OUTER
G1 F1500 E0
G1 F600 X32.68 Y32.68 E1.32279
G1 X52.32 Y32.68 E2.64558
G1 X52.32 Y52.32 E3.96837
G1 X32.68 Y52.32 E5.29116
G0 F1500 X33.04 Y51.96
;TYPE:WALL-INNER
G1 F600 X33.04 Y33.04 E6.56545
G1 X51.96 Y33.04 E7.83975
G1 X51.96 Y51.96 E9.11404
G1 X33.04 Y51.96 E10.38834
G0 F1500 X33.4 Y51.6
G1 F600 X33.4 Y33.4 E11.61414
G1 X51.6 Y33.4 E12.83994
G1 X51.6 Y51.6 E14.06574
G1 X33.4 Y51.6 E15.29155
G0 F1500 X33.76 Y51.24
G1 F600 X33.76 Y33.76 E16.46886
G1 X51.24 Y33.76 E17.64616
G1 X51.24 Y51.24 E18.82347
G1 X33.76 Y51.24 E20.00078
G0 F1500 X34.12 Y50.88
G1 F600 X34.12 Y34.12 E21.1296
G1 X50.88 Y34.12 E22.25841
G1 X50.88 Y50.88 E23.38723
G1 X34.12 Y50.88 E24.51605
G0 F1500 X34.48 Y50.52
G1 F600 X34.48 Y34.48 E25.59637
G1 X50.52 Y34.48 E26.67669
G1 X50.52 Y50.52 E27.75701
G1 X34.48 Y50.52 E28.83734
G0 F1500 X34.83 Y50.17
;TYPE:SKIN
G1 F600 X34.83 Y34.83 E29.87051
G1 X50.17 Y34.83 E30.90369
G1 X50.17 Y50.17 E31.93686
G1 X34.83 Y50.17 E32.97004
G0 F1500 X35.17 Y49.829
G1 F600 X35.574 Y49.829 E32.99725
G1 X35.169 Y49.424 E33.03583
G1 X35.169 Y48.915 E33.07011
G1 X36.083 Y49.829 E33.15717
G1 X36.592 Y49.829 E33.19145
G1 X35.169 Y48.406 E33.32699
G1 X35.169 Y47.897 E33.36127
G1 X37.101 Y49.829 E33.54529
G1 X37.611 Y49.829 E33.57964
G1 X35.169 Y47.388 E33.8122
G1 X35.169 Y46.879 E33.84648
G1 X38.12 Y49.829 E34.12751
G1 X38.629 Y49.829 E34.16179
G1 X35.169 Y46.369 E34.49136
G1 X35.169 Y45.86 E34.52564
G1 X39.138 Y49.829 E34.90369
G1 X39.647 Y49.829 E34.93797
G1 X35.169 Y45.351 E35.3645
G1 X35.169 Y44.842 E35.39878
G1 X40.156 Y49.829 E35.87379
G1 X40.665 Y49.829 E35.90807
G1 X35.169 Y44.333 E36.43157
G1 X35.169 Y43.824 E36.46585
G1 X41.174 Y49.829 E37.03782
G1 X41.683 Y49.829 E37.0721
G1 X35.169 Y43.315 E37.69256
G1 X35.169 Y42.806 E37.72684
G1 X42.193 Y49.829 E38.39583
G1 X42.702 Y49.829 E38.43011
G1 X35.169 Y42.297 E39.14758
G1 X35.169 Y41.787 E39.18193
G1 X43.211 Y49.829 E39.94793
G1 X43.72 Y49.829 E39.98221
G1 X35.169 Y41.278 E40.79669
G1 X35.169 Y40.769 E40.83098
G1 X44.229 Y49.829 E41.69394
G1 X44.738 Y49.829 E41.72822
G1 X35.169 Y40.26 E42.63967
G1 X35.169 Y39.751 E42.67395
G1 X45.247 Y49.829 E43.63387
G1 X45.756 Y49.829 E43.66816
G1 X35.169 Y39.242 E44.67657
G1 X35.169 Y38.733 E44.71085
G1 X46.265 Y49.829 E45.76774
G1 X46.775 Y49.829 E45.80209
G1 X35.169 Y38.224 E46.90751
G1 X35.169 Y37.714 E46.94186
G1 X47.284 Y49.829 E48.09581
G1 X47.793 Y49.829 E48.13009
G1 X35.169 Y37.205 E49.33253
G1 X35.169 Y36.696 E49.36681
G1 X48.302 Y49.829 E50.61772
G1 X48.811 Y49.829 E50.65201
G1 X35.169 Y36.187 E51.9514
G1 X35.169 Y35.678 E51.98569
G1 X49.32 Y49.829 E53.33357
G1 X49.829 Y49.829 E53.36785
G1 X35.169 Y35.169 E54.76421
G1 X35.679 Y35.17 E54.79856
G1 X49.829 Y49.32 E56.14634
G1 X49.829 Y48.811 E56.18063
G1 X36.188 Y35.17 E57.47993
G1 X36.697 Y35.17 E57.51421
G1 X49.829 Y48.302 E58.76503
G1 X49.829 Y47.793 E58.79931
G1 X37.206 Y35.17 E60.00165
G1 X37.715 Y35.17 E60.03593
G1 X49.829 Y47.284 E61.18979
G1 X49.829 Y46.775 E61.22407
G1 X38.224 Y35.17 E62.32945
G1 X38.733 Y35.17 E62.36373
G1 X49.829 Y46.265 E63.42057
G1 X49.829 Y45.756 E63.45485
G1 X39.243 Y35.17 E64.46317
G1 X39.752 Y35.17 E64.49745
G1 X49.829 Y45.247 E65.45728
G1 X49.829 Y44.738 E65.49156
G1 X40.261 Y35.17 E66.40291
G1 X40.77 Y35.17 E66.4372
G1 X49.829 Y44.229 E67.30006
G1 X49.829 Y43.72 E67.33435
G1 X41.279 Y35.17 E68.14873
G1 X41.788 Y35.17 E68.18301
G1 X49.829 Y43.211 E68.94892
G1 X49.829 Y42.702 E68.9832
G1 X42.297 Y35.17 E69.70062
G1 X42.806 Y35.17 E69.7349
G1 X49.829 Y42.193 E70.40384
G1 X49.829 Y41.683 E70.43819
G1 X43.315 Y35.17 E71.0586
G1 X43.825 Y35.17 E71.09295
G1 X49.829 Y41.174 E71.66483
G1 X49.829 Y40.665 E71.69911
G1 X44.334 Y35.17 E72.22251
G1 X44.843 Y35.17 E72.25679
G1 X49.829 Y40.156 E72.73171
G1 X49.829 Y39.647 E72.76599
G1 X45.352 Y35.17 E73.19242
G1 X45.861 Y35.17 E73.2267
G1 X49.829 Y39.138 E73.60466
G1 X49.829 Y38.629 E73.63894
G1 X46.37 Y35.17 E73.96841
G1 X46.879 Y35.17 E74.00269
G1 X49.829 Y38.12 E74.28368
G1 X49.829 Y37.611 E74.31796
G1 X47.388 Y35.17 E74.55046
G1 X47.897 Y35.17 E74.58474
G1 X49.829 Y37.101 E74.76872
G1 X49.829 Y36.592 E74.803
G1 X48.407 Y35.17 E74.93845
G1 X48.916 Y35.17 E74.97273
G1 X49.829 Y36.083 E75.05969
G1 X49.829 Y35.574 E75.09397
G1 X49.425 Y35.17 E75.13245
G1 X49.829 Y35.17 E75.15967
G1 F1500 E74.65967
G0 F1500 X56.963 Y52.32
;TYPE:WALL-OUTER
G1 F1500 E75.15967
G1 F600 X56.963 Y32.68 E76.48245
G1 X76.603 Y32.68 E77.80524
G1 X76.603 Y52.32 E79.12803
G1 X56.963 Y52.32 E80.45082
G0 F1500 X57.323 Y51.96
;TYPE:WALL-INNER
G1 F600 X57.323 Y33.04 E81.72512
G1 X76.243 Y33.04 E82.99941
G1 X76.243 Y51.96 E84.27371
G1 X57.323 Y51.96 E85.548
G0 F1500 X57.683 Y51.6
G1 F600 X57.683 Y33.4 E86.7738
G1 X75.883 Y33.4 E87.99961
G1 X75.883 Y51.6 E89.22541
G1 X57.683 Y51.6 E90.45121
G0 F1500 X58.043 Y51.24
G1 F600 X58.043 Y33.76 E91.62852
G1 X75.523 Y33.76 E92.80583
G1 X75.523 Y51.24 E93.98314
G1 X58.043 Y51.24 E95.16045
G0 F1500 X58.403 Y50.88
G1 F600 X58.403 Y34.12 E96.28926
G1 X75.163 Y34.12 E97.41808
G1 X75.163 Y50.88 E98.54689
G1 X58.403 Y50.88 E99.67571
G0 F1500 X58.763 Y50.52
G1 F600 X58.763 Y34.48 E100.75603
G1 X74.803 Y34.48 E101.83636
G1 X74.803 Y50.52 E102.91668
G1 X58.763 Y50.52 E103.997
G0 F1500 X59.113 Y50.17
;TYPE:SKIN
G1 F600 X59.113 Y34.83 E105.03018
G1 X74.453 Y34.83 E106.06335
G1 X74.453 Y50.17 E107.09653
G1 X59.113 Y50.17 E108.12971
G0 F1500 X59.452 Y49.829
G1 F600 X59.503 Y49.829 E108.13314
G1 X59.452 Y49.778 E108.138
G0 F1500 X59.503 Y49.829
G1 F600 X60.012 Y49.829 E108.17228
G1 X59.452 Y49.269 E108.22562
G1 X59.452 Y48.76 E108.2599
G1 X60.521 Y49.829 E108.36172
G1 X61.03 Y49.829 E108.39601
G1 X59.452 Y48.251 E108.54631
G1 X59.452 Y47.742 E108.58059
G1 X61.539 Y49.829 E108.77938
G1 X62.048 Y49.829 E108.81366
G1 X59.452 Y47.233 E109.06093
G1 X59.452 Y46.724 E109.09521
G1 X62.557 Y49.829 E109.39096
G1 X63.066 Y49.829 E109.42524
G1 X59.452 Y46.215 E109.76948
G1 X59.452 Y45.705 E109.80383
G1 X63.575 Y49.829 E110.19659
G1 X64.085 Y49.829 E110.23094
G1 X59.452 Y45.196 E110.67223
G1 X59.452 Y44.687 E110.70651
G1 X64.594 Y49.829 E111.19629
G1 X65.103 Y49.829 E111.23057
G1 X59.452 Y44.178 E111.76883
G1 X59.452 Y43.669 E111.80311
G1 X65.612 Y49.829 E112.38985
G1 X66.121 Y49.829 E112.42413
G1 X59.452 Y43.16 E113.05935
G1 X59.452 Y42.651 E113.09363
G1 X66.63 Y49.829 E113.77733
G1 X67.139 Y49.829 E113.81162
G1 X59.452 Y42.142 E114.5438
G1 X59.452 Y41.633 E114.57808
G1 X67.648 Y49.829 E115.35875
G1 X68.158 Y49.829 E115.3931
G1 X59.452 Y41.123 E116.22234
G1 X59.452 Y40.614 E116.25663
G1 X68.667 Y49.829 E117.13435
G1 X69.176 Y49.829 E117.16864
G1 X59.452 Y40.105 E118.09484
G1 X59.452 Y39.596 E118.12913
G1 X69.685 Y49.829 E119.10382
G1 X70.194 Y49.829 E119.1381
G1 X59.452 Y39.087 E120.16127
G1 X59.452 Y38.578 E120.19556
G1 X70.703 Y49.829 E121.26721
G1 X71.212 Y49.829 E121.30149
G1 X59.452 Y38.069 E122.42163
G1 X59.452 Y37.56 E122.45591
G1 X71.721 Y49.829 E123.62453
G1 X72.23 Y49.829 E123.65881
G1 X59.452 Y37.05 E124.87596
G1 X59.452 Y36.541 E124.91025
G1 X72.74 Y49.829 E126.17592
G1 X73.249 Y49.829 E126.21021
G1 X59.452 Y36.032 E127.52437
G1 X59.452 Y35.523 E127.55865
G1 X73.758 Y49.829 E128.92129
G1 X74.111 Y49.829 E128.94507
G1 X74.111 Y49.674 E128.95551
G1 X59.607 Y35.17 E130.33701
G1 X60.116 Y35.17 E130.37129
G1 X74.111 Y49.165 E131.70431
G1 X74.111 Y48.656 E131.7386
G1 X60.625 Y35.17 E133.02313
G1 X61.135 Y35.17 E133.05748
G1 X74.111 Y48.146 E134.29345
G1 X74.111 Y47.637 E134.32773
G1 X61.644 Y35.17 E135.51521
G1 X62.153 Y35.17 E135.54949
G1 X74.111 Y47.128 E136.68849
G1 X74.111 Y46.619 E136.72277
G1 X62.662 Y35.17 E137.81328
G1 X63.171 Y35.17 E137.84756
G1 X74.111 Y46.11 E138.8896
G1 X74.111 Y45.601 E138.92388
G1 X63.68 Y35.17 E139.91743
G1 X64.189 Y35.17 E139.95171
G1 X74.111 Y45.092 E140.89678
G1 X74.111 Y44.583 E140.93106
G1 X64.698 Y35.17 E141.82765
G1 X65.207 Y35.17 E141.86193
G1 X74.111 Y44.073 E142.70999
G1 X74.111 Y43.564 E142.74427
G1 X65.717 Y35.17 E143.5438
G1 X66.226 Y35.17 E143.57808
G1 X74.111 Y43.055 E144.32912
G1 X74.111 Y42.546 E144.36341
G1 X66.735 Y35.17 E145.06597
G1 X67.244 Y35.17 E145.10025
G1 X74.111 Y42.037 E145.75433
G1 X74.111 Y41.528 E145.78861
G1 X67.753 Y35.17 E146.39421
G1 X68.262 Y35.17 E146.42849
G1 X74.111 Y41.019 E146.98561
G1 X74.111 Y40.51 E147.01989
G1 X68.771 Y35.17 E147.52852
G1 X69.28 Y35.17 E147.56281
G1 X74.111 Y40.001 E148.02296
G1 X74.111 Y39.491 E148.05731
G1 X69.79 Y35.17 E148.46888
G1 X70.299 Y35.17 E148.50316
G1 X74.111 Y38.982 E148.86626
G1 X74.111 Y38.473 E148.90054
G1 X70.808 Y35.17 E149.21515
G1 X71.317 Y35.17 E149.24943
G1 X74.111 Y37.964 E149.51556
G1 X74.111 Y37.455 E149.54984
G1 X71.826 Y35.17 E149.76749
G1 X72.335 Y35.17 E149.80177
G1 X74.111 Y36.946 E149.97093
G1 X74.111 Y36.437 E150.00521
G1 X72.844 Y35.17 E150.1259
G1 X73.353 Y35.17 E150.16018
G1 X74.111 Y35.928 E150.23238
G1 X74.111 Y35.418 E150.26673
G1 X73.862 Y35.17 E150.2904
G1 X74.111 Y35.17 E150.30717
G1 F1500 E149.80717
G0 F1500 X32.693 Y77.473
;TYPE:WALL-OUTER
G1 F1500 E150.30717
G1 F600 X32.693 Y57.835 E151.62982
G1 X52.331 Y57.835 E152.95247
G1 X52.331 Y77.472 E154.27506
G1 X32.693 Y77.473 E155.59772
G0 F1500 X33.053 Y77.113
;TYPE:WALL-INNER
G1 F600 X33.053 Y58.195 E156.87188
G1 X51.971 Y58.195 E158.14604
G1 X51.971 Y77.112 E159.42013
G1 X33.053 Y77.113 E160.69429
G0 F1500 X33.413 Y76.753
G1 F600 X33.413 Y58.555 E161.91996
G1 X51.611 Y58.555 E163.14563
G1 X51.611 Y76.752 E164.37123
G1 X33.413 Y76.753 E165.59689
G0 F1500 X33.773 Y76.393
G1 F600 X33.773 Y58.915 E166.77407
G1 X51.251 Y58.915 E167.95124
G1 X51.251 Y76.392 E169.12835
G1 X33.773 Y76.393 E170.30552
G0 F1500 X34.133 Y76.033
G1 F600 X34.133 Y59.275 E171.43421
G1 X50.891 Y59.275 E172.56289
G1 X50.891 Y76.032 E173.6915
G1 X34.133 Y76.033 E174.82018
G0 F1500 X34.493 Y75.673
G1 F600 X34.493 Y59.635 E175.90037
G1 X50.531 Y59.635 E176.98056
G1 X50.531 Y75.672 E178.06068
G1 X34.493 Y75.673 E179.14086
G0 F1500 X34.843 Y75.323
;TYPE:SKIN
G1 F600 X34.843 Y59.985 E180.17391
G1 X50.181 Y59.985 E181.20695
G1 X50.181 Y75.322 E182.23992
G1 X34.843 Y75.323 E183.27296
G0 F1500 X35.183 Y74.982
G1 F600 X35.27 Y74.981 E183.27882
G1 X35.182 Y74.893 E183.28721
G1 X35.182 Y74.384 E183.32149
G1 X35.779 Y74.981 E183.37835
G1 X36.288 Y74.981 E183.41263
G1 X35.182 Y73.875 E183.51798
G1 X35.182 Y73.366 E183.55226
G1 X36.797 Y74.981 E183.70609
G1 X37.306 Y74.981 E183.74037
G1 X35.182 Y72.857 E183.94268
G1 X35.182 Y72.348 E183.97696
G1 X37.816 Y74.981 E184.22781
G1 X38.325 Y74.981 E184.26209
G1 X35.182 Y71.839 E184.56141
G1 X35.182 Y71.33 E184.59569
G1 X38.834 Y74.981 E184.9435
G1 X39.343 Y74.981 E184.97778
G1 X35.182 Y70.82 E185.37411
G1 X35.182 Y70.311 E185.40839
G1 X39.852 Y74.981 E185.85321
G1 X40.361 Y74.981 E185.88749
G1 X35.182 Y69.802 E186.38079
G1 X35.182 Y69.293 E186.41507
G1 X40.87 Y74.981 E186.95685
G1 X41.379 Y74.981 E186.99114
G1 X35.182 Y68.784 E187.5814
G1 X35.182 Y68.275 E187.61568
G1 X41.889 Y74.981 E188.25447
G1 X42.398 Y74.981 E188.28876
G1 X35.182 Y67.766 E188.97603
G1 X35.182 Y67.257 E189.01031
G1 X42.907 Y74.981 E189.74607
G1 X43.416 Y74.981 E189.78035
G1 X35.182 Y66.748 E190.56459
G1 X35.182 Y66.238 E190.59894
G1 X43.925 Y74.981 E191.43171
G1 X44.434 Y74.981 E191.46599
G1 X35.182 Y65.729 E192.34724
G1 X35.182 Y65.22 E192.38153
G1 X44.943 Y74.981 E193.31126
G1 X45.452 Y74.981 E193.34554
G1 X35.182 Y64.711 E194.32376
G1 X35.182 Y64.202 E194.35804
G1 X45.961 Y74.981 E195.38474
G1 X46.471 Y74.981 E195.41908
G1 X35.182 Y63.693 E196.49431
G1 X35.182 Y63.184 E196.52859
G1 X46.98 Y74.981 E197.6523
G1 X47.489 Y74.981 E197.68659
G1 X35.182 Y62.675 E198.85878
G1 X35.182 Y62.165 E198.89313
G1 X47.998 Y74.981 E200.11385
G1 X48.507 Y74.981 E200.14813
G1 X35.182 Y61.656 E201.41733
G1 X35.182 Y61.147 E201.45162
G1 X49.016 Y74.981 E202.7693
G1 X49.525 Y74.981 E202.80358
G1 X35.182 Y60.638 E204.16975
G1 X35.182 Y60.324 E204.1909
G1 X35.377 Y60.324 E204.20403
G1 X49.841 Y74.787 E205.58168
G1 X49.841 Y74.278 E205.61596
G1 X35.887 Y60.324 E206.94508
G1 X36.396 Y60.324 E206.97936
G1 X49.841 Y73.769 E208.25999
G1 X49.841 Y73.26 E208.29427
G1 X36.905 Y60.324 E209.52642
G1 X37.414 Y60.324 E209.56071
G1 X49.841 Y72.751 E210.74438
G1 X49.841 Y72.242 E210.77866
G1 X37.923 Y60.324 E211.91385
G1 X38.432 Y60.324 E211.94813
G1 X49.841 Y71.733 E213.03483
G1 X49.841 Y71.224 E213.06911
G1 X38.941 Y60.324 E214.10734
G1 X39.45 Y60.324 E214.14162
G1 X49.841 Y70.714 E215.13131
G1 X49.841 Y70.205 E215.16559
G1 X39.96 Y60.324 E216.10676
G1 X40.469 Y60.324 E216.14104
G1 X49.841 Y69.696 E217.03372
G1 X49.841 Y69.187 E217.068
G1 X40.978 Y60.324 E217.9122
G1 X41.487 Y60.324 E217.94648
G1 X49.841 Y68.678 E218.7422
G1 X49.841 Y68.169 E218.77648
G1 X41.996 Y60.324 E219.52372
G1 X42.505 Y60.324 E219.558
G1 X49.841 Y67.66 E220.25675
G1 X49.841 Y67.151 E220.29103
G1 X43.014 Y60.324 E220.9413
G1 X43.523 Y60.324 E220.97559
G1 X49.841 Y66.641 E221.57733
G1 X49.841 Y66.132 E221.61161
G1 X44.032 Y60.324 E222.16487
G1 X44.542 Y60.324 E222.19922
G1 X49.841 Y65.623 E222.70394
G1 X49.841 Y65.114 E222.73823
G1 X45.051 Y60.324 E223.19447
G1 X45.56 Y60.324 E223.22876
G1 X49.841 Y64.605 E223.63652
G1 X49.841 Y64.096 E223.6708
G1 X46.069 Y60.324 E224.03008
G1 X46.578 Y60.324 E224.06437
G1 X49.841 Y63.587 E224.37517
G1 X49.841 Y63.078 E224.40945
G1 X47.087 Y60.324 E224.67177
G1 X47.596 Y60.324 E224.70605
G1 X49.841 Y62.569 E224.91988
G1 X49.841 Y62.059 E224.95423
G1 X48.105 Y60.324 E225.11954
G1 X48.615 Y60.324 E225.15389
G1 X49.841 Y61.55 E225.27066
G1 X49.841 Y61.041 E225.30495
G1 X49.124 Y60.324 E225.37324
G1 X49.633 Y60.324 E225.40752
G1 X49.841 Y60.532 E225.42734
G0 F1500 X49.633 Y60.324
G1 F600 X49.841 Y60.324 E225.44134
G1 F1500 E224.94134
G0 F1500 X32.693 Y175.754
;TYPE:WALL-OUTER
G1 F1500 E225.44134
G1 F600 X32.693 Y156.115 E226.76407
G1 X52.331 Y156.115 E228.08672
G1 X52.331 Y175.753 E229.40937
G1 X32.693 Y175.754 E230.73203
G0 F1500 X33.053 Y175.394
;TYPE:WALL-INNER
G1 F600 X33.053 Y156.475 E232.00626
G1 X51.971 Y156.475 E233.28042
G1 X51.971 Y175.393 E234.55458
G1 X33.053 Y175.394 E235.82874
G0 F1500 X33.413 Y175.034
G1 F600 X33.413 Y156.835 E237.05447
G1 X51.611 Y156.835 E238.28014
G1 X51.611 Y175.033 E239.50581
G1 X33.413 Y175.034 E240.73148
G0 F1500 X33.773 Y174.674
G1 F600 X33.773 Y157.195 E241.90872
G1 X51.251 Y157.195 E243.08589
G1 X51.251 Y174.673 E244.26307
G1 X33.773 Y174.674 E245.44024
G0 F1500 X34.133 Y174.314
G1 F600 X34.133 Y157.555 E246.56899
G1 X50.891 Y157.555 E247.69767
G1 X50.891 Y174.313 E248.82635
G1 X34.133 Y174.314 E249.95503
G0 F1500 X34.493 Y173.954
G1 F600 X34.493 Y157.915 E251.03529
G1 X50.531 Y157.915 E252.11548
G1 X50.531 Y173.953 E253.19566
G1 X34.493 Y173.954 E254.27585
G0 F1500 X34.843 Y173.604
;TYPE:SKIN
G1 F600 X34.843 Y158.265 E255.30896
G1 X50.181 Y158.265 E256.342
G1 X50.181 Y173.603 E257.37504
G1 X34.843 Y173.604 E258.40808
G0 F1500 X35.182 Y173.263
G1 F600 X35.292 Y173.263 E258.41549
G1 X35.182 Y173.153 E258.42597
G0 F1500 X35.292 Y173.263
G1 F600 X35.801 Y173.263 E258.46025
G1 X35.182 Y172.644 E258.51921
G1 X35.182 Y172.135 E258.55349
G1 X36.31 Y173.263 E258.66094
G1 X36.819 Y173.263 E258.69522
G1 X35.182 Y171.626 E258.85114
G1 X35.182 Y171.117 E258.88542
G1 X37.328 Y173.263 E259.08983
G1 X37.837 Y173.263 E259.12411
