;FLAVOR:Marlin
;TIME:1516
;Filament used: 0.714899m
;Layer height: 0.2
;MINX:17.775
;MINY:17.775
;MINZ:0.2
;MAXX:217.225
;MAXY:217.225
;MAXZ:0.2
;Generated with Cura_SteamEngine 4.4.0
M82 ;absolute extrusion mode
;Start GCode Cura 14.07
;Basic settings:
;Layer height: 0.2
;Walls: 1.2 Fill: {fill_density}
;Print time: 00:25:16
;Filament used:
;[0.71]m [2.132221474609375]g
;Filament cost: [0.0]
;M190 S75 ;65
;M109 S220 ;220
;G21 ;metric values
;G90 ;absolute positioning
;M82 ;set extruder to absolute mode
;G28 X0 Y0 ;move X/Y to min endstops
;G28 Z0 ;move Z to min endstops
;G1 Z15.0 F50.0 ;move the platform down 15mm
;G92 E0 ;zero the extruded length

;M117 Printing...

; Ender 3 Custom Start G-code
M140 S70 ; Set Heat Bed temperature
M190 S70 ; Wait for Heat Bed temperature
M104 S160; start warming extruder to 160
G28 ; Home all axes
G29 ; Auto bed-level (BL-Touch)
G92 E0 ; Reset Extruder
M104 S220 ; Set Extruder temperature
G1 X0.1 Y20 Z0.3 F5000.0 ; Move to start position
M109 S220 ; Wait for Extruder temperature
; G1 Z2.0 F3000 ; Move Z Axis up little to prevent scratching of Heat Bed
G1 X0.1 Y200.0 Z0.3 F1500.0 E15 ; Draw the first line
G1 X0.4 Y200.0 Z0.3 F5000.0 ; Move to side a little
G1 X0.4 Y20 Z0.3 F1500.0 E30 ; Draw the second line
G92 E0 ; Reset Extruder
G1 Z2.0 F3000 ; Move Z Axis up little to prevent scratching of Heat Bed
; End of custom start GCode
G92 E0
G92 E0
G1 F1500 E-6
;LAYER_COUNT:1
;LAYER:0
M107
;MESH:X.stl
G0 F1500 X217.225 Y209.955 Z0.2
;TYPE:WALL-OUTER
G1 F1500 E0
G1 F600 X209.955 Y217.225 E0.49242
G1 X117.5 Y124.77 E6.75469
G1 X25.045 Y217.225 E13.01696
G1 X17.775 Y209.955 E13.50938
G1 X110.23 Y117.5 E19.77166
G1 X17.775 Y25.045 E26.03393
G1 X25.045 Y17.775 E26.52635
G1 X117.5 Y110.23 E32.78862
G1 X209.955 Y17.775 E39.05089
G1 X217.225 Y25.045 E39.54331
G1 X124.77 Y117.5 E45.80558
G1 X217.225 Y209.955 E52.06785
G0 F1500 X216.681 Y209.955
;TYPE:WALL-INNER
G1 F600 X209.955 Y216.681 E52.52343
G1 X117.5 Y124.227 E58.78567
G1 X25.045 Y216.681 E65.0479
G1 X18.319 Y209.955 E65.50348
G1 X110.773 Y117.5 E71.76571
G1 X18.319 Y25.045 E78.02795
G1 X25.045 Y18.319 E78.48353
G1 X117.5 Y110.773 E84.74576
G1 X209.955 Y18.319 E91.008
G1 X216.681 Y25.045 E91.46357
G1 X124.227 Y117.5 E97.72581
G1 X216.681 Y209.955 E103.98805
G0 F1500 X216.137 Y209.955
G1 F600 X209.955 Y216.137 E104.40678
G1 X117.5 Y123.684 E110.66898
G1 X25.045 Y216.137 E116.93118
G1 X18.863 Y209.955 E117.34991
G1 X111.316 Y117.5 E123.61211
G1 X18.863 Y25.045 E129.87432
G1 X25.045 Y18.863 E130.29304
G1 X117.5 Y111.316 E136.55525
G1 X209.955 Y18.863 E142.81745
G1 X216.137 Y25.045 E143.23618
G1 X123.684 Y117.5 E149.49838
G1 X216.137 Y209.955 E155.76059
G0 F1500 X215.593 Y209.955
G1 F600 X209.955 Y215.593 E156.14247
G1 X117.5 Y123.141 E162.40464
G1 X25.045 Y215.593 E168.66681
G1 X19.407 Y209.955 E169.04869
G1 X111.859 Y117.5 E175.31086
G1 X19.407 Y25.045 E181.57303
G1 X25.045 Y19.407 E181.95491
G1 X117.5 Y111.859 E188.21708
G1 X209.955 Y19.407 E194.47925
G1 X215.593 Y25.045 E194.86113
G1 X123.141 Y117.5 E201.1233
G1 X215.593 Y209.955 E207.38547
G0 F1500 X215.049 Y209.955
G1 F600 X209.955 Y215.049 E207.7305
G1 X117.5 Y122.598 E213.99264
G1 X25.045 Y215.049 E220.25477
G1 X19.951 Y209.955 E220.5998
G1 X112.402 Y117.5 E226.86194
G1 X19.951 Y25.045 E233.12408
G1 X25.045 Y19.951 E233.46911
G1 X117.5 Y112.402 E239.73125
G1 X209.955 Y19.951 E245.99338
G1 X215.049 Y25.045 E246.33841
G1 X122.598 Y117.5 E252.60055
G1 X215.049 Y209.955 E258.86269
G0 F1500 X214.519 Y209.955
;TYPE:SKIN
G1 F600 X209.955 Y214.519 E259.17182
G1 X117.5 Y122.069 E265.43392
G1 X25.045 Y214.519 E271.69603
G1 X20.481 Y209.955 E272.00516
G1 X112.931 Y117.5 E278.26726
G1 X20.481 Y25.045 E284.52936
G1 X25.045 Y20.481 E284.8385
G1 X117.5 Y112.931 E291.1006
G1 X209.955 Y20.481 E297.3627
G1 X214.519 Y25.045 E297.67184
G1 X122.069 Y117.5 E303.93394
G1 X214.519 Y209.955 E310.19604
G1 F1500 E304.19604
G0 F1500 X214.007 Y25.045
G1 F1500 E310.19604
G1 F600 X209.954 Y20.991 E310.4706
G1 X209.693 Y21.252 E310.48828
G1 X213.747 Y25.306 E310.76287
G1 F1500 E304.76287
G0 F1500 X209.693 Y21.252
G1 F1500 E310.76287
G1 F600 X209.421 Y21.523 E310.78126
G1 X213.476 Y25.578 E311.05591
G1 X213.204 Y25.849 E311.0743
G1 X209.15 Y21.795 E311.34889
G1 X208.878 Y22.066 E311.36728
G1 X212.933 Y26.121 E311.64194
G1 X212.661 Y26.392 E311.66033
G1 X208.607 Y22.338 E311.93492
G1 X208.335 Y22.609 E311.95331
G1 X212.39 Y26.664 E312.22797
G1 X212.118 Y26.935 E312.24636
G1 X208.064 Y22.881 E312.52095
G1 X207.792 Y23.152 E312.53934
G1 X211.847 Y27.207 E312.814
G1 X211.575 Y27.478 E312.83239
G1 X207.52 Y23.424 E313.10701
G1 X207.249 Y23.695 E313.12537
G1 X211.304 Y27.75 E313.40003
G1 X211.032 Y28.021 E313.41841
G1 X206.977 Y23.967 E313.69304
G1 X206.706 Y24.238 E313.71139
G1 X210.76 Y28.293 E313.98602
G1 X210.489 Y28.564 E314.00437
G1 X206.434 Y24.51 E314.279
G1 X206.163 Y24.781 E314.29735
G1 X210.217 Y28.836 E314.57198
G1 X209.946 Y29.108 E314.59037
G1 X205.891 Y25.053 E314.86503
G1 X205.62 Y25.325 E314.88342
G1 X209.674 Y29.379 E315.15801
G1 X209.403 Y29.651 E315.1764
G1 X205.348 Y25.596 E315.45105
G1 X205.077 Y25.868 E315.46944
G1 X209.131 Y29.922 E315.74403
G1 X208.86 Y30.194 E315.76242
G1 X204.805 Y26.139 E316.03708
G1 X204.534 Y26.411 E316.05547
G1 X208.588 Y30.465 E316.33006
G1 X208.317 Y30.737 E316.34845
G1 X204.262 Y26.682 E316.62311
G1 X203.991 Y26.954 E316.6415
G1 X208.045 Y31.008 E316.91609
G1 X207.774 Y31.28 E316.93448
G1 X203.719 Y27.225 E317.20914
G1 X203.448 Y27.497 E317.22753
G1 X207.502 Y31.551 E317.50212
G1 X207.231 Y31.823 E317.52051
G1 X203.176 Y27.768 E317.79516
G1 X202.904 Y28.04 E317.81359
G1 X206.959 Y32.094 E318.08821
G1 X206.688 Y32.366 E318.1066
G1 X202.633 Y28.311 E318.38126
G1 X202.361 Y28.583 E318.39968
G1 X206.416 Y32.637 E318.67431
G1 X206.144 Y32.909 E318.69273
G1 X202.09 Y28.854 E318.96735
G1 X201.818 Y29.126 E318.98578
G1 X205.873 Y33.18 E319.2604
G1 X205.601 Y33.452 E319.27883
G1 X201.547 Y29.397 E319.55345
G1 X201.275 Y29.669 E319.57187
G1 X205.33 Y33.724 E319.84653
G1 X205.058 Y33.995 E319.86492
G1 X201.004 Y29.941 E320.13951
G1 X200.732 Y30.212 E320.1579
G1 X204.787 Y34.267 E320.43256
G1 X204.515 Y34.538 E320.45095
G1 X200.461 Y30.484 E320.72554
G1 X200.189 Y30.755 E320.74393
G1 X204.244 Y34.81 E321.01859
G1 X203.972 Y35.081 E321.03698
G1 X199.918 Y31.027 E321.31157
G1 X199.646 Y31.298 E321.32996
G1 X203.701 Y35.353 E321.60461
G1 X203.429 Y35.624 E321.623
G1 X199.375 Y31.57 E321.89759
G1 X199.103 Y31.841 E321.91598
G1 X203.158 Y35.896 E322.19064
G1 X202.886 Y36.167 E322.20903
G1 X198.832 Y32.113 E322.48362
G1 X198.56 Y32.384 E322.50201
G1 X202.615 Y36.439 E322.77667
G1 X202.343 Y36.71 E322.79506
G1 X198.289 Y32.656 E323.06965
G1 X198.017 Y32.927 E323.08804
G1 X202.072 Y36.982 E323.3627
G1 X201.8 Y37.253 E323.38109
G1 X197.745 Y33.199 E323.65571
G1 X197.474 Y33.47 E323.67407
G1 X201.528 Y37.525 E323.94869
G1 X201.257 Y37.796 E323.96705
G1 X197.202 Y33.742 E324.24167
G1 X196.931 Y34.013 E324.26003
G1 X200.985 Y38.068 E324.53465
G1 X200.714 Y38.34 E324.55304
G1 X196.659 Y34.285 E324.8277
G1 X196.388 Y34.557 E324.84609
G1 X200.442 Y38.611 E325.12068
G1 X200.171 Y38.883 E325.13907
G1 X196.116 Y34.828 E325.41373
G1 X195.845 Y35.1 E325.43212
G1 X199.899 Y39.154 E325.70671
G1 X199.628 Y39.426 E325.7251
G1 X195.573 Y35.371 E325.99975
G1 X195.302 Y35.643 E326.01814
G1 X199.356 Y39.697 E326.29273
G1 X199.085 Y39.969 E326.31112
G1 X195.03 Y35.914 E326.58578
G1 X194.759 Y36.186 E326.60417
G1 X198.813 Y40.24 E326.87876
G1 X198.542 Y40.512 E326.89715
G1 X194.487 Y36.457 E327.17181
G1 X194.216 Y36.729 E327.1902
G1 X198.27 Y40.783 E327.46479
G1 X197.999 Y41.055 E327.48318
G1 X193.944 Y37 E327.75784
G1 X193.673 Y37.272 E327.77623
G1 X197.727 Y41.326 E328.05082
G1 X197.456 Y41.598 E328.06921
G1 X193.401 Y37.543 E328.34386
G1 X193.129 Y37.815 E328.36229
G1 X197.184 Y41.869 E328.63691
G1 X196.912 Y42.141 E328.65533
G1 X192.858 Y38.086 E328.92996
G1 X192.586 Y38.358 E328.94838
G1 X196.641 Y42.412 E329.22301
G1 X196.369 Y42.684 E329.24143
G1 X192.315 Y38.629 E329.51605
G1 X192.043 Y38.901 E329.53448
G1 X196.098 Y42.956 E329.80914
G1 X195.826 Y43.227 E329.82753
G1 X191.772 Y39.173 E330.10212
G1 X191.5 Y39.444 E330.12051
G1 X195.555 Y43.499 E330.39516
G1 X195.283 Y43.77 E330.41355
G1 X191.229 Y39.716 E330.68814
G1 X190.957 Y39.987 E330.70653
G1 X195.012 Y44.042 E330.98119
G1 X194.74 Y44.313 E330.99958
G1 X190.686 Y40.259 E331.27417
G1 X190.414 Y40.53 E331.29256
G1 X194.469 Y44.585 E331.56722
G1 X194.197 Y44.856 E331.58561
G1 X190.143 Y40.802 E331.8602
G1 X189.871 Y41.073 E331.87859
G1 X193.926 Y45.128 E332.15325
G1 X193.654 Y45.399 E332.17164
G1 X189.6 Y41.345 E332.44623
G1 X189.328 Y41.616 E332.46462
G1 X193.383 Y45.671 E332.73927
G1 X193.111 Y45.942 E332.75766
G1 X189.057 Y41.888 E333.03225
G1 X188.785 Y42.159 E333.05064
G1 X192.84 Y46.214 E333.3253
G1 X192.568 Y46.485 E333.34369
G1 X188.513 Y42.431 E333.61831
G1 X188.242 Y42.702 E333.63667
G1 X192.296 Y46.757 E333.91129
G1 X192.025 Y47.028 E333.92965
G1 X187.97 Y42.974 E334.20427
G1 X187.699 Y43.245 E334.22263
G1 X191.753 Y47.3 E334.49725
G1 X191.482 Y47.572 E334.51564
G1 X187.427 Y43.517 E334.7903
G1 X187.156 Y43.789 E334.80869
G1 X191.21 Y47.843 E335.08328
G1 X190.939 Y48.115 E335.10167
G1 X186.884 Y44.06 E335.37633
G1 X186.612 Y44.331 E335.39472
G1 X190.668 Y48.387 E335.66945
G1 X190.396 Y48.658 E335.68783
G1 X186.341 Y44.602 E335.96253
G1 X186.069 Y44.874 E335.98095
G1 X190.125 Y48.93 E336.25568
G1 X189.853 Y49.201 E336.27407
G1 X185.797 Y45.145 E336.54879
G1 X185.526 Y45.417 E336.56718
G1 X189.582 Y49.473 E336.84191
G1 X189.31 Y49.744 E336.8603
G1 X185.254 Y45.688 E337.13502
G1 X184.983 Y45.96 E337.15341
G1 X189.039 Y50.016 E337.42814
G1 X188.767 Y50.288 E337.44656
G1 X184.711 Y46.232 E337.72129
G1 X184.44 Y46.503 E337.73964
G1 X188.496 Y50.559 E338.01437
G1 X188.224 Y50.831 E338.03279
G1 X184.168 Y46.775 E338.30752
G1 X183.897 Y47.046 E338.32587
G1 X187.953 Y51.102 E338.6006
G1 X187.681 Y51.374 E338.61902
G1 X183.625 Y47.318 E338.89375
G1 X183.354 Y47.589 E338.9121
G1 X187.41 Y51.645 E339.18683
G1 X187.138 Y51.917 E339.20525
G1 X183.082 Y47.861 E339.47998
G1 X182.811 Y48.132 E339.49833
G1 X186.867 Y52.188 E339.77306
G1 X186.595 Y52.46 E339.79148
G1 X182.539 Y48.404 E340.06621
G1 X182.268 Y48.675 E340.08457
G1 X186.324 Y52.731 E340.35929
G1 X186.052 Y53.003 E340.37771
G1 X181.996 Y48.947 E340.65244
G1 X181.725 Y49.218 E340.6708
G1 X185.78 Y53.274 E340.94549
G1 X185.509 Y53.546 E340.96388
G1 X181.453 Y49.49 E341.2386
G1 X181.181 Y49.761 E341.25699
G1 X185.237 Y53.817 E341.53172
G1 X184.966 Y54.089 E341.55011
G1 X180.91 Y50.033 E341.82483
G1 X180.638 Y50.304 E341.84322
G1 X184.694 Y54.36 E342.11795
G1 X184.423 Y54.632 E342.13634
G1 X180.367 Y50.576 E342.41106
G1 X180.095 Y50.848 E342.42949
G1 X184.151 Y54.904 E342.70421
G1 X183.88 Y55.175 E342.72257
G1 X179.824 Y51.119 E342.9973
G1 X179.552 Y51.391 E343.01572
G1 X183.608 Y55.447 E343.29044
G1 X183.337 Y55.718 E343.3088
G1 X179.281 Y51.662 E343.58353
G1 X179.009 Y51.934 E343.60195
G1 X183.065 Y55.99 E343.87668
G1 X182.794 Y56.261 E343.89503
G1 X178.738 Y52.205 E344.16976
G1 X178.466 Y52.477 E344.18818
G1 X182.522 Y56.533 E344.46291
G1 X182.251 Y56.804 E344.48126
G1 X178.195 Y52.748 E344.75599
G1 X177.923 Y53.02 E344.77441
G1 X181.979 Y57.076 E345.04914
G1 X181.708 Y57.347 E345.06749
G1 X177.652 Y53.291 E345.34222
G1 X177.38 Y53.563 E345.36064
G1 X181.436 Y57.619 E345.63537
G1 X181.164 Y57.89 E345.65376
G1 X177.109 Y53.834 E345.92845
G1 X176.837 Y54.106 E345.94687
G1 X180.893 Y58.162 E346.2216
G1 X180.621 Y58.433 E346.23999
G1 X176.565 Y54.377 E346.51471
G1 X176.294 Y54.649 E346.5331
G1 X180.35 Y58.705 E346.80783
G1 X180.078 Y58.976 E346.82622
G1 X176.022 Y54.92 E347.10094
G1 X175.751 Y55.192 E347.11933
G1 X179.807 Y59.248 E347.39406
G1 X179.535 Y59.52 E347.41248
G1 X175.479 Y55.464 E347.68721
G1 X175.208 Y55.735 E347.70556
G1 X179.264 Y59.791 E347.98029
G1 X178.992 Y60.063 E347.99871
G1 X174.936 Y56.007 E348.27344
G1 X174.665 Y56.278 E348.2918
G1 X178.721 Y60.334 E348.56652
G1 X178.449 Y60.606 E348.58494
G1 X174.393 Y56.55 E348.85967
G1 X174.122 Y56.821 E348.87803
G1 X178.178 Y60.877 E349.15275
G1 X177.906 Y61.149 E349.17118
G1 X173.85 Y57.093 E349.4459
G1 X173.579 Y57.364 E349.46426
G1 X177.635 Y61.42 E349.73898
G1 X177.363 Y61.692 E349.75741
G1 X173.307 Y57.636 E350.03213
G1 X173.036 Y57.907 E350.05049
G1 X177.092 Y61.963 E350.32521
G1 X176.82 Y62.235 E350.34364
G1 X172.764 Y58.179 E350.61836
G1 X172.493 Y58.45 E350.63672
G1 X176.549 Y62.506 E350.91144
G1 X176.277 Y62.778 E350.92987
G1 X172.221 Y58.722 E351.20459
G1 X171.949 Y58.993 E351.22298
G1 X176.005 Y63.049 E351.49771
G1 X175.734 Y63.321 E351.5161
G1 X171.678 Y59.265 E351.79082
G1 X171.406 Y59.536 E351.80921
G1 X175.462 Y63.592 E352.08394
G1 X175.191 Y63.864 E352.10233
G1 X171.135 Y59.808 E352.37706
G1 X170.863 Y60.08 E352.39548
G1 X174.919 Y64.135 E352.67017
G1 X174.648 Y64.407 E352.68856
G1 X170.592 Y60.351 E352.96329
G1 X170.32 Y60.623 E352.98171
G1 X174.376 Y64.679 E353.25644
G1 X174.105 Y64.95 E353.27479
G1 X170.049 Y60.894 E353.54952
G1 X169.777 Y61.166 E353.56794
G1 X173.833 Y65.222 E353.84267
G1 X173.562 Y65.493 E353.86102
G1 X169.506 Y61.437 E354.13575
G1 X169.234 Y61.709 E354.15417
G1 X173.29 Y65.765 E354.4289
G1 X173.019 Y66.036 E354.44725
G1 X168.963 Y61.98 E354.72198
G1 X168.691 Y62.252 E354.7404
G1 X172.747 Y66.308 E355.01513
G1 X172.476 Y66.579 E355.03348
G1 X168.42 Y62.523 E355.30821
G1 X168.148 Y62.795 E355.32663
G1 X172.204 Y66.851 E355.60136
G1 X171.933 Y67.122 E355.61971
G1 X167.877 Y63.066 E355.89444
G1 X167.605 Y63.338 E355.91286
G1 X171.661 Y67.394 E356.18759
G1 X171.389 Y67.665 E356.20598
G1 X167.333 Y63.609 E356.4807
G1 X167.062 Y63.881 E356.49909
G1 X171.118 Y67.937 E356.77382
G1 X170.846 Y68.208 E356.79221
G1 X166.79 Y64.152 E357.06693
G1 X166.519 Y64.424 E357.08532
G1 X170.575 Y68.48 E357.36005
G1 X170.303 Y68.751 E357.37844
G1 X166.247 Y64.696 E357.65313
G1 X165.976 Y64.967 E357.67149
G1 X170.032 Y69.023 E357.94621
G1 X169.76 Y69.295 E357.96464
G1 X165.704 Y65.239 E358.23936
G1 X165.433 Y65.51 E358.25772
G1 X169.489 Y69.566 E358.53244
G1 X169.217 Y69.838 E358.55087
G1 X165.161 Y65.782 E358.82559
G1 X164.89 Y66.053 E358.84395
G1 X168.946 Y70.109 E359.11867
G1 X168.674 Y70.381 E359.1371
G1 X164.618 Y66.325 E359.41182
G1 X164.347 Y66.596 E359.43018
G1 X168.403 Y70.652 E359.70491
G1 X168.131 Y70.924 E359.72333
G1 X164.075 Y66.868 E359.99805
G1 X163.804 Y67.139 E360.01641
G1 X167.86 Y71.195 E360.29114
G1 X167.589 Y71.467 E360.30953
G1 X163.531 Y67.41 E360.58435
G1 X163.26 Y67.682 E360.60274
G1 X167.317 Y71.739 E360.87754
G1 X167.046 Y72.011 E360.89593
G1 X162.988 Y67.953 E361.17079
G1 X162.717 Y68.225 E361.18918
G1 X166.774 Y72.282 E361.46397
G1 X166.503 Y72.554 E361.48236
G1 X162.445 Y68.496 E361.75722
G1 X162.174 Y68.768 E361.77561
G1 X166.231 Y72.825 E362.0504
G1 X165.96 Y73.097 E362.06879
G1 X161.902 Y69.039 E362.34365
G1 X161.631 Y69.311 E362.36204
G1 X165.688 Y73.368 E362.63684
G1 X165.417 Y73.64 E362.65523
G1 X161.359 Y69.582 E362.93009
G1 X161.088 Y69.854 E362.94848
G1 X165.145 Y73.911 E363.22327
G1 X164.873 Y74.183 E363.2417
G1 X160.816 Y70.125 E363.51652
G1 X160.545 Y70.397 E363.53491
G1 X164.602 Y74.454 E363.80971
G1 X164.33 Y74.726 E363.82813
G1 X160.273 Y70.668 E364.10296
G1 X160.002 Y70.94 E364.12135
G1 X164.059 Y74.997 E364.39614
G1 X163.787 Y75.269 E364.41456
G1 X159.73 Y71.212 E364.68936
G1 X159.458 Y71.483 E364.70775
G1 X163.516 Y75.54 E364.98257
G1 X163.244 Y75.812 E365.001
G1 X159.187 Y71.755 E365.27579
G1 X158.915 Y72.026 E365.29418
G1 X162.973 Y76.083 E365.56901
G1 X162.701 Y76.355 E365.58743
G1 X158.644 Y72.298 E365.86222
G1 X158.372 Y72.569 E365.88061
G1 X162.43 Y76.627 E366.15548
G1 X162.158 Y76.898 E366.17387
G1 X158.101 Y72.841 E366.44866
G1 X157.829 Y73.112 E366.46705
G1 X161.887 Y77.17 E366.74191
G1 X161.615 Y77.441 E366.7603
G1 X157.558 Y73.384 E367.03509
G1 X157.286 Y73.655 E367.05348
G1 X161.344 Y77.713 E367.32834
G1 X161.072 Y77.984 E367.34673
